;FLAVOR:UltiGCode
;TIME:2634
;MATERIAL:2465
;MATERIAL2:0
;NOZZLE_DIAMETER:0.000000
;NOZZLE_DIAMETER2:0.000000

;Layer count: 62
;LAYER:0
M107
G0 F9000 X104.299 Y51.800 Z0.300
;TYPE:SKIRT
G1 F1200 X118.695 Y51.800 E1.72752
G1 X118.700 Y64.162 E3.21096
G1 X118.700 Y171.200 E16.05552
G1 X104.299 Y171.200 E17.78364
G1 X104.299 Y51.800 E32.11164
G10
G0 F9000 X108.099 Y55.600
;TYPE:WALL-INNER
G11
G1 F1200 X114.896 Y55.600 E32.92728
G1 X114.900 Y167.400 E46.34328
G1 X108.099 Y167.400 E47.15940
G1 X108.099 Y55.600 E60.57540
G0 F9000 X107.699 Y55.200
;TYPE:WALL-OUTER
G1 F1200 X115.296 Y55.200 E61.48704
G1 X115.300 Y167.800 E74.99904
G1 X107.699 Y167.800 E75.91116
G1 X107.699 Y55.200 E89.42316
G0 F9000 X108.238 Y55.912
;TYPE:SKIN
G1 F900 X114.755 Y62.429 E90.52913
G0 F9000 X114.755 Y61.864
G1 F900 X108.631 Y55.739 E91.56849
G0 F9000 X109.197 Y55.739
G1 F900 X114.755 Y61.298 E92.51180
G0 F9000 X114.755 Y60.732
G1 F900 X109.762 Y55.739 E93.35914
G0 F9000 X110.328 Y55.739
G1 F900 X114.755 Y60.167 E94.11051
G0 F9000 X114.755 Y62.995
G1 F900 X108.238 Y56.478 E95.21649
G0 F9000 X108.238 Y57.043
G1 F900 X114.755 Y63.561 E96.32254
G0 F9000 X114.755 Y64.126
G1 F900 X108.238 Y57.609 E97.42851
G0 F9000 X108.238 Y58.175
G1 F900 X114.755 Y64.692 E98.53449
G0 F9000 X114.755 Y65.258
G1 F900 X108.238 Y58.740 E99.64054
G0 F9000 X108.238 Y59.306
G1 F900 X114.755 Y65.823 E100.74651
G0 F9000 X114.755 Y66.389
G1 F900 X108.238 Y59.872 E101.85249
G0 F9000 X110.894 Y55.739
G1 F900 X114.755 Y59.601 E102.50780
G0 F9000 X114.755 Y59.035
G1 F900 X111.459 Y55.739 E103.06715
G0 F9000 X112.025 Y55.739
G1 F900 X114.755 Y58.469 E103.53045
G0 F9000 X114.755 Y57.904
G1 F900 X112.591 Y55.739 E103.89778
G0 F9000 X113.156 Y55.739
G1 F900 X114.755 Y57.338 E104.16914
G0 F9000 X114.755 Y56.772
G1 F900 X113.722 Y55.739 E104.34444
G0 F9000 X114.288 Y55.739
G1 F900 X114.755 Y56.207 E104.42378
G0 F9000 X108.238 Y60.437
G1 F900 X114.755 Y66.955 E105.52984
G0 F9000 X114.755 Y67.520
G1 F900 X108.238 Y61.003 E106.63581
G0 F9000 X108.238 Y61.569
G1 F900 X114.755 Y68.086 E107.74178
G0 F9000 X114.755 Y68.652
G1 F900 X108.238 Y62.134 E108.84784
G0 F9000 X108.238 Y62.700
G1 F900 X114.755 Y69.217 E109.95381
G0 F9000 X114.755 Y69.783
G1 F900 X108.238 Y63.266 E111.05978
G0 F9000 X108.238 Y63.831
G1 F900 X114.755 Y70.349 E112.16584
G0 F9000 X114.755 Y70.915
G1 F900 X108.238 Y64.397 E113.27189
G0 F9000 X108.238 Y64.963
G1 F900 X114.755 Y71.480 E114.37786
G0 F9000 X114.756 Y72.047
G1 F900 X108.238 Y65.528 E115.48409
G0 F9000 X108.238 Y66.094
G1 F900 X114.756 Y72.612 E116.59023
G0 F9000 X114.756 Y73.178
G1 F900 X108.238 Y66.660 E117.69637
G0 F9000 X108.238 Y67.226
G1 F900 X114.756 Y73.744 E118.80251
G0 F9000 X114.756 Y74.309
G1 F900 X108.238 Y67.791 E119.90865
G0 F9000 X108.238 Y68.357
G1 F900 X114.756 Y74.875 E121.01480
G0 F9000 X114.756 Y75.441
G1 F900 X108.238 Y68.923 E122.12094
G0 F9000 X108.238 Y69.488
G1 F900 X114.756 Y76.006 E123.22708
G0 F9000 X114.756 Y76.572
G1 F900 X108.238 Y70.054 E124.33322
G0 F9000 X108.238 Y70.620
G1 F900 X114.756 Y77.138 E125.43936
G0 F9000 X114.756 Y77.703
G1 F900 X108.238 Y71.185 E126.54550
G0 F9000 X108.238 Y71.751
G1 F900 X114.756 Y78.269 E127.65164
G0 F9000 X114.756 Y78.835
G1 F900 X108.238 Y72.317 E128.75779
G0 F9000 X108.238 Y72.882
G1 F900 X114.756 Y79.401 E129.86401
G0 F9000 X114.756 Y79.966
G1 F900 X108.238 Y73.448 E130.97015
G0 F9000 X108.238 Y74.014
G1 F900 X114.756 Y80.532 E132.07629
G0 F9000 X114.756 Y81.098
G1 F900 X108.238 Y74.579 E133.18252
G0 F9000 X108.238 Y75.145
G1 F900 X114.756 Y81.663 E134.28866
G0 F9000 X114.756 Y82.229
G1 F900 X108.238 Y75.711 E135.39480
G0 F9000 X108.238 Y76.277
G1 F900 X114.756 Y82.795 E136.50094
G0 F9000 X114.756 Y83.360
G1 F900 X108.238 Y76.842 E137.60709
G0 F9000 X108.238 Y77.408
G1 F900 X114.756 Y83.926 E138.71323
G0 F9000 X114.756 Y84.492
G1 F900 X108.238 Y77.974 E139.81937
G0 F9000 X108.238 Y78.539
G1 F900 X114.756 Y85.057 E140.92551
G0 F9000 X114.756 Y85.623
G1 F900 X108.238 Y79.105 E142.03165
G0 F9000 X108.238 Y79.671
G1 F900 X114.756 Y86.189 E143.13779
G0 F9000 X114.756 Y86.754
G1 F900 X108.238 Y80.236 E144.24393
G0 F9000 X108.238 Y80.802
G1 F900 X114.756 Y87.320 E145.35007
G0 F9000 X114.757 Y87.887
G1 F900 X108.238 Y81.368 E146.45639
G0 F9000 X108.238 Y81.933
G1 F900 X114.757 Y88.452 E147.56270
G0 F9000 X114.757 Y89.018
G1 F900 X108.238 Y82.499 E148.66901
G0 F9000 X108.238 Y83.065
G1 F900 X114.757 Y89.584 E149.77532
G0 F9000 X114.757 Y90.149
G1 F900 X108.238 Y83.630 E150.88163
G0 F9000 X108.238 Y84.196
G1 F900 X114.757 Y90.715 E151.98794
G0 F9000 X114.757 Y91.281
G1 F900 X108.238 Y84.762 E153.09425
G0 F9000 X108.238 Y85.327
G1 F900 X114.757 Y91.846 E154.20056
G0 F9000 X114.757 Y92.412
G1 F900 X108.238 Y85.893 E155.30687
G0 F9000 X108.238 Y86.459
G1 F900 X114.757 Y92.978 E156.41318
G0 F9000 X114.757 Y93.543
G1 F900 X108.238 Y87.025 E157.51941
G0 F9000 X108.238 Y87.590
G1 F900 X114.757 Y94.109 E158.62572
G0 F9000 X114.757 Y94.675
G1 F900 X108.238 Y88.156 E159.73203
G0 F9000 X108.238 Y88.722
G1 F900 X114.757 Y95.240 E160.83826
G0 F9000 X114.757 Y95.806
G1 F900 X108.238 Y89.287 E161.94457
G0 F9000 X108.238 Y89.853
G1 F900 X114.757 Y96.372 E163.05088
G0 F9000 X114.757 Y96.937
G1 F900 X108.238 Y90.419 E164.15711
G0 F9000 X108.238 Y90.984
G1 F900 X114.757 Y97.503 E165.26342
G0 F9000 X114.757 Y98.069
G1 F900 X108.238 Y91.550 E166.36973
G0 F9000 X108.238 Y92.116
G1 F900 X114.757 Y98.635 E167.47604
G0 F9000 X114.757 Y99.200
G1 F900 X108.238 Y92.681 E168.58235
G0 F9000 X108.238 Y93.247
G1 F900 X114.757 Y99.766 E169.68866
G0 F9000 X114.757 Y100.332
G1 F900 X108.238 Y93.813 E170.79497
G0 F9000 X108.238 Y94.378
G1 F900 X114.757 Y100.897 E171.90128
G0 F9000 X114.757 Y101.463
G1 F900 X108.238 Y94.944 E173.00759
G0 F9000 X108.238 Y95.510
G1 F900 X114.757 Y102.029 E174.11391
G0 F9000 X114.757 Y102.594
G1 F900 X108.238 Y96.076 E175.22013
G0 F9000 X108.238 Y96.641
G1 F900 X114.757 Y103.160 E176.32644
G0 F9000 X114.757 Y103.726
G1 F900 X108.238 Y97.207 E177.43275
G0 F9000 X108.238 Y97.773
G1 F900 X114.757 Y104.292 E178.53906
G0 F9000 X114.757 Y104.858
G1 F900 X108.238 Y98.338 E179.64546
G0 F9000 X108.238 Y98.904
G1 F900 X114.757 Y105.423 E180.75177
G0 F9000 X114.757 Y105.989
G1 F900 X108.238 Y99.470 E181.85808
G0 F9000 X108.238 Y100.035
G1 F900 X114.757 Y106.555 E182.96448
G0 F9000 X114.757 Y107.121
G1 F900 X108.238 Y100.601 E184.07087
G0 F9000 X108.238 Y101.167
G1 F900 X114.757 Y107.686 E185.17718
G0 F9000 X114.757 Y108.252
G1 F900 X108.238 Y101.732 E186.28358
G0 F9000 X108.238 Y102.298
G1 F900 X114.757 Y108.818 E187.38998
G0 F9000 X114.757 Y109.383
G1 F900 X108.238 Y102.864 E188.49629
G0 F9000 X108.238 Y103.429
G1 F900 X114.757 Y109.949 E189.60268
G0 F9000 X114.757 Y110.515
G1 F900 X108.238 Y103.995 E190.70908
G0 F9000 X108.238 Y104.561
G1 F900 X114.757 Y111.080 E191.81539
G0 F9000 X114.757 Y111.646
G1 F900 X108.238 Y105.126 E192.92179
G0 F9000 X108.238 Y105.692
G1 F900 X114.757 Y112.212 E194.02818
G0 F9000 X114.757 Y112.777
G1 F900 X108.238 Y106.258 E195.13449
G0 F9000 X108.238 Y106.824
G1 F900 X114.757 Y113.343 E196.24080
G0 F9000 X114.757 Y113.909
G1 F900 X108.238 Y107.389 E197.34720
G0 F9000 X108.238 Y107.955
G1 F900 X114.757 Y114.474 E198.45351
G0 F9000 X114.757 Y115.040
G1 F900 X108.238 Y108.521 E199.55982
G0 F9000 X108.238 Y109.086
G1 F900 X114.757 Y115.606 E200.66622
G0 F9000 X114.757 Y116.171
G1 F900 X108.238 Y109.652 E201.77253
G0 F9000 X108.238 Y110.218
G1 F900 X114.757 Y116.737 E202.87884
G0 F9000 X114.757 Y117.303
G1 F900 X108.238 Y110.783 E203.98524
G0 F9000 X108.238 Y111.349
G1 F900 X114.757 Y117.869 E205.09163
G0 F9000 X114.757 Y118.434
G1 F900 X108.238 Y111.915 E206.19794
G0 F9000 X108.238 Y112.480
G1 F900 X114.757 Y119.000 E207.30434
G0 F9000 X114.758 Y119.566
G1 F900 X108.238 Y113.046 E208.41082
G0 F9000 X108.238 Y113.612
G1 F900 X114.758 Y120.132 E209.51730
G0 F9000 X114.758 Y120.698
G1 F900 X108.238 Y114.177 E210.62386
G0 F9000 X108.238 Y114.743
G1 F900 X114.758 Y121.263 E211.73035
G0 F9000 X114.758 Y121.829
G1 F900 X108.238 Y115.309 E212.83683
G0 F9000 X108.238 Y115.875
G1 F900 X114.758 Y122.395 E213.94331
G0 F9000 X114.758 Y122.960
G1 F900 X108.238 Y116.440 E215.04979
G0 F9000 X108.238 Y117.006
G1 F900 X114.758 Y123.526 E216.15627
G0 F9000 X114.758 Y124.092
G1 F900 X108.238 Y117.572 E217.26275
G0 F9000 X108.238 Y118.137
G1 F900 X114.758 Y124.657 E218.36923
G0 F9000 X114.758 Y125.223
G1 F900 X108.238 Y118.703 E219.47571
G0 F9000 X108.238 Y119.269
G1 F900 X114.758 Y125.789 E220.58219
G0 F9000 X114.758 Y126.355
G1 F900 X108.238 Y119.834 E221.68876
G0 F9000 X108.238 Y120.400
G1 F900 X114.758 Y126.920 E222.79524
G0 F9000 X114.758 Y127.486
G1 F900 X108.238 Y120.966 E223.90172
G0 F9000 X108.238 Y121.531
G1 F900 X114.758 Y128.052 E225.00828
G0 F9000 X114.758 Y128.617
G1 F900 X108.238 Y122.097 E226.11476
G0 F9000 X108.238 Y122.663
G1 F900 X114.758 Y129.183 E227.22124
G0 F9000 X114.758 Y129.749
G1 F900 X108.238 Y123.228 E228.32781
G0 F9000 X108.238 Y123.794
G1 F900 X114.758 Y130.314 E229.43429
G0 F9000 X114.758 Y130.880
G1 F900 X108.238 Y124.360 E230.54077
G0 F9000 X108.238 Y124.925
G1 F900 X114.758 Y131.446 E231.64734
G0 F9000 X114.758 Y132.011
G1 F900 X108.238 Y125.491 E232.75382
G0 F9000 X108.238 Y126.057
G1 F900 X114.758 Y132.577 E233.86030
G0 F9000 X114.758 Y133.143
G1 F900 X108.238 Y126.623 E234.96678
G0 F9000 X108.238 Y127.188
G1 F900 X114.758 Y133.708 E236.07326
G0 F9000 X114.758 Y134.274
G1 F900 X108.238 Y127.754 E237.17974
G0 F9000 X108.238 Y128.320
G1 F900 X114.758 Y134.840 E238.28622
G0 F9000 X114.759 Y135.406
G1 F900 X108.238 Y128.885 E239.39287
G0 F9000 X108.238 Y129.451
G1 F900 X114.759 Y135.972 E240.49952
G0 F9000 X114.759 Y136.538
G1 F900 X108.238 Y130.017 E241.60617
G0 F9000 X108.238 Y130.582
G1 F900 X114.759 Y137.103 E242.71282
G0 F9000 X114.759 Y137.669
G1 F900 X108.238 Y131.148 E243.81947
G0 F9000 X108.238 Y131.714
G1 F900 X114.759 Y138.235 E244.92612
G0 F9000 X114.759 Y138.800
G1 F900 X108.238 Y132.279 E246.03277
G0 F9000 X108.238 Y132.845
G1 F900 X114.759 Y139.366 E247.13942
G0 F9000 X114.759 Y139.932
G1 F900 X108.238 Y133.411 E248.24608
G0 F9000 X108.238 Y133.976
G1 F900 X114.759 Y140.497 E249.35273
G0 F9000 X114.759 Y141.063
G1 F900 X108.238 Y134.542 E250.45938
G0 F9000 X108.238 Y135.108
G1 F900 X114.759 Y141.629 E251.56603
G0 F9000 X114.759 Y142.194
G1 F900 X108.238 Y135.673 E252.67268
G0 F9000 X108.238 Y136.239
G1 F900 X114.759 Y142.760 E253.77933
G0 F9000 X114.759 Y143.326
G1 F900 X108.238 Y136.805 E254.88598
G0 F9000 X108.238 Y137.371
G1 F900 X114.759 Y143.891 E255.99254
G0 F9000 X114.759 Y144.457
G1 F900 X108.238 Y137.936 E257.09919
G0 F9000 X108.238 Y138.502
G1 F900 X114.759 Y145.023 E258.20584
G0 F9000 X114.759 Y145.589
G1 F900 X108.238 Y139.068 E259.31249
G0 F9000 X108.238 Y139.633
G1 F900 X114.759 Y146.154 E260.41914
G0 F9000 X114.759 Y146.720
G1 F900 X108.238 Y140.199 E261.52579
G0 F9000 X108.238 Y140.765
G1 F900 X114.759 Y147.286 E262.63245
G0 F9000 X114.759 Y147.851
G1 F900 X108.238 Y141.330 E263.73910
G0 F9000 X108.238 Y141.896
G1 F900 X114.759 Y148.417 E264.84575
G0 F9000 X114.759 Y148.983
G1 F900 X108.238 Y142.462 E265.95240
G0 F9000 X108.238 Y143.027
G1 F900 X114.759 Y149.548 E267.05905
G0 F9000 X114.759 Y150.114
G1 F900 X108.238 Y143.593 E268.16570
G0 F9000 X108.238 Y144.159
G1 F900 X114.759 Y150.680 E269.27235
G0 F9000 X114.759 Y151.245
G1 F900 X108.238 Y144.724 E270.37900
G0 F9000 X108.238 Y145.290
G1 F900 X114.759 Y151.812 E271.48573
G0 F9000 X114.759 Y152.377
G1 F900 X108.238 Y145.856 E272.59238
G0 F9000 X108.238 Y146.422
G1 F900 X114.759 Y152.943 E273.69903
G0 F9000 X114.759 Y153.509
G1 F900 X108.238 Y146.987 E274.80577
G0 F9000 X108.238 Y147.553
G1 F900 X114.759 Y154.075 E275.91250
G0 F9000 X114.759 Y154.640
G1 F900 X108.238 Y148.119 E277.01916
G0 F9000 X108.238 Y148.684
G1 F900 X114.759 Y155.206 E278.12589
G0 F9000 X114.759 Y155.772
G1 F900 X108.238 Y149.250 E279.23263
G0 F9000 X108.238 Y149.816
G1 F900 X114.759 Y156.337 E280.33928
G0 F9000 X114.759 Y156.903
G1 F900 X108.238 Y150.381 E281.44601
G0 F9000 X108.238 Y150.947
G1 F900 X114.759 Y157.469 E282.55275
G0 F9000 X114.759 Y158.034
G1 F900 X108.238 Y151.513 E283.65940
G0 F9000 X108.238 Y152.078
G1 F900 X114.759 Y158.600 E284.76613
G0 F9000 X114.759 Y159.166
G1 F900 X108.238 Y152.644 E285.87287
G0 F9000 X108.238 Y153.210
G1 F900 X114.759 Y159.731 E286.97952
G0 F9000 X114.759 Y160.297
G1 F900 X108.238 Y153.775 E288.08625
G0 F9000 X108.238 Y154.341
G1 F900 X114.759 Y160.863 E289.19299
G0 F9000 X114.759 Y161.428
G1 F900 X108.238 Y154.907 E290.29964
G0 F9000 X108.238 Y155.472
G1 F900 X114.759 Y161.994 E291.40637
G0 F9000 X114.759 Y162.560
G1 F900 X108.238 Y156.038 E292.51311
G0 F9000 X108.238 Y156.604
G1 F900 X114.759 Y163.125 E293.61976
G0 F9000 X114.759 Y163.691
G1 F900 X108.238 Y157.170 E294.72641
G0 F9000 X108.238 Y157.735
G1 F900 X114.759 Y164.257 E295.83315
G0 F9000 X114.759 Y164.823
G1 F900 X108.238 Y158.301 E296.93988
G0 F9000 X108.238 Y158.867
G1 F900 X114.759 Y165.388 E298.04653
G0 F9000 X114.759 Y165.954
G1 F900 X108.238 Y159.432 E299.15327
G0 F9000 X108.238 Y159.998
G1 F900 X114.759 Y166.520 E300.26000
G0 F9000 X114.759 Y167.085
G1 F900 X108.238 Y160.564 E301.36665
G0 F9000 X108.238 Y161.129
G1 F900 X114.368 Y167.259 E302.40695
G0 F9000 X113.802 Y167.259
G1 F900 X108.238 Y161.695 E303.35119
G0 F9000 X108.238 Y162.261
G1 F900 X113.236 Y167.259 E304.19938
G0 F9000 X112.671 Y167.259
G1 F900 X108.238 Y162.826 E304.95168
G0 F9000 X108.238 Y163.392
G1 F900 X112.105 Y167.259 E305.60793
G0 F9000 X111.539 Y167.259
G1 F900 X108.238 Y163.958 E306.16813
G0 F9000 X108.238 Y164.523
G1 F900 X110.974 Y167.259 E306.63245
G0 F9000 X110.408 Y167.259
G1 F900 X108.238 Y165.089 E307.00071
G0 F9000 X108.238 Y165.655
G1 F900 X109.842 Y167.259 E307.27292
G0 F9000 X109.276 Y167.259
G1 F900 X108.238 Y166.221 E307.44907
G0 F9000 X108.238 Y166.786
G1 F900 X108.711 Y167.259 E307.52934
;LAYER:1
M106 S127
G0 F9000 X108.099 Y167.400 Z0.400
;TYPE:WALL-INNER
G1 F1800 X108.099 Y55.600 E312.00134
G1 X114.900 Y55.600 E312.27338
G1 X114.900 Y167.400 E316.74538
G1 X108.099 Y167.400 E317.01742
G0 F9000 X107.699 Y167.800
;TYPE:WALL-OUTER
G1 F1320 X107.699 Y55.200 E321.52142
G1 X115.300 Y55.200 E321.82546
G1 X115.300 Y167.800 E326.32946
G1 X107.699 Y167.800 E326.63350
G0 F9000 X108.511 Y167.259
;TYPE:SKIN
G1 F900 X114.759 Y161.012 E326.98691
G0 F9000 X114.759 Y161.578
G1 F900 X109.077 Y167.259 E327.30831
G0 F9000 X109.643 Y167.259
G1 F900 X114.759 Y162.143 E327.59771
G0 F9000 X114.759 Y162.709
G1 F900 X110.208 Y167.259 E327.85513
G0 F9000 X110.774 Y167.259
G1 F900 X114.759 Y163.275 E328.08053
G0 F9000 X114.759 Y163.840
G1 F900 X111.340 Y167.259 E328.27393
G0 F9000 X111.906 Y167.259
G1 F900 X114.759 Y164.406 E328.43532
G0 F9000 X114.759 Y164.972
G1 F900 X112.471 Y167.259 E328.56472
G0 F9000 X113.037 Y167.259
G1 F900 X114.759 Y165.537 E328.66213
G0 F9000 X114.759 Y166.103
G1 F900 X113.603 Y167.259 E328.72753
G0 F9000 X114.168 Y167.259
G1 F900 X114.759 Y166.669 E328.76093
G0 F9000 X114.759 Y160.446
G1 F900 X108.238 Y166.967 E329.12982
G0 F9000 X108.238 Y166.401
G1 F900 X114.759 Y159.881 E329.49867
G0 F9000 X114.759 Y159.315
G1 F900 X108.238 Y165.835 E329.86753
G0 F9000 X108.238 Y165.269
G1 F900 X114.759 Y158.749 E330.23638
G0 F9000 X114.759 Y158.184
G1 F900 X108.238 Y164.704 E330.60524
G0 F9000 X108.238 Y164.138
G1 F900 X114.759 Y157.618 E330.97409
G0 F9000 X114.759 Y157.052
G1 F900 X108.238 Y163.572 E331.34295
G0 F9000 X108.238 Y163.007
G1 F900 X114.759 Y156.486 E331.71183
G0 F9000 X114.759 Y155.921
G1 F900 X108.238 Y162.441 E332.08068
G0 F9000 X108.238 Y161.875
G1 F900 X114.759 Y155.355 E332.44954
G0 F9000 X114.759 Y154.789
G1 F900 X108.238 Y161.310 E332.81842
G0 F9000 X108.238 Y160.744
G1 F900 X114.759 Y154.224 E333.18728
G0 F9000 X114.759 Y153.658
G1 F900 X108.238 Y160.178 E333.55613
G0 F9000 X108.238 Y159.613
G1 F900 X114.759 Y153.092 E333.92502
G0 F9000 X114.759 Y152.527
G1 F900 X108.238 Y159.047 E334.29387
G0 F9000 X108.238 Y158.481
G1 F900 X114.759 Y151.961 E334.66273
G0 F9000 X114.759 Y151.395
