;FLAVOR:UltiGCode
;TIME:7771
;MATERIAL:21483
;MATERIAL2:0
;NOZZLE_DIAMETER:0.400000
;NOZZLE_DIAMETER2:0.400000

;Layer count: 346
;LAYER:0
M107
G0 F9000 X80.187 Y89.187 Z0.300
;TYPE:SKIRT
G1 F1800 X81.174 Y88.431 E0.18649
G1 X81.744 Y87.995 E0.29413
G1 X83.555 Y87.241 E0.58839
G1 X84.729 Y87.088 E0.76598
G1 X85.206 Y87.025 E0.83815
G1 X137.792 Y87.025 E8.72605
G1 X139.444 Y87.241 E8.97596
G1 X141.260 Y87.995 E9.27090
G1 X142.241 Y88.750 E9.45659
G1 X142.811 Y89.188 E9.56442
G1 X144.007 Y90.743 E9.85868
G1 X144.479 Y91.886 E10.04417
G1 X144.757 Y92.554 E10.15270
G1 X144.975 Y94.206 E10.40265
G1 X144.975 Y128.795 E15.59100
G1 X144.847 Y129.761 E15.73717
G1 X144.758 Y130.443 E15.84033
G1 X144.479 Y131.114 E15.94934
G1 X144.007 Y132.258 E16.13497
G1 X143.248 Y133.244 E16.32161
G1 X142.812 Y133.811 E16.42890
G1 X141.257 Y135.007 E16.72316
G1 X140.107 Y135.482 E16.90980
G1 X139.446 Y135.757 E17.01719
G1 X137.794 Y135.975 E17.26714
G1 X85.206 Y135.975 E25.15534
G1 X84.729 Y135.912 E25.22751
G1 X83.556 Y135.759 E25.40495
G1 X82.404 Y135.280 E25.59209
G1 X81.743 Y135.004 E25.69954
G1 X81.174 Y134.569 E25.80697
G1 X80.187 Y133.813 E25.99346
G1 X79.431 Y132.826 E26.17995
G1 X78.995 Y132.256 E26.28759
G1 X78.241 Y130.445 E26.58185
G1 X78.087 Y129.261 E26.76094
G1 X78.025 Y128.794 E26.83161
G1 X78.025 Y94.205 E32.01996
G1 X78.153 Y93.239 E32.16613
G1 X78.242 Y92.559 E32.26900
G1 X78.719 Y91.407 E32.45602
G1 X78.996 Y90.743 E32.56394
G1 X79.431 Y90.174 E32.67138
G1 X80.187 Y89.187 E32.85787
G10
G0 F9000 X83.040 Y92.040
;TYPE:WALL-INNER
G11
G1 F1800 X83.764 Y91.486 E32.99461
G1 X84.597 Y91.140 E33.12991
G1 X85.256 Y91.054 E33.22960
G1 X85.469 Y91.025 E33.26185
G1 X137.529 Y91.025 E41.07085
G1 X138.401 Y91.139 E41.20276
G1 X139.239 Y91.487 E41.33887
G1 X139.961 Y92.042 E41.47547
G1 X140.513 Y92.759 E41.61120
G1 X140.785 Y93.420 E41.71841
G1 X140.860 Y93.601 E41.74780
G1 X140.975 Y94.473 E41.87973
G1 X140.975 Y128.533 E46.98873
G1 X140.881 Y129.236 E47.09512
G1 X140.860 Y129.399 E47.11978
G1 X140.513 Y130.239 E47.25610
G1 X139.958 Y130.961 E47.39270
G1 X139.241 Y131.513 E47.52843
G1 X138.580 Y131.785 E47.63565
G1 X138.399 Y131.860 E47.66504
G1 X137.527 Y131.975 E47.79697
G1 X85.469 Y131.975 E55.60567
G1 X84.597 Y131.860 E55.73760
G1 X83.764 Y131.514 E55.87290
G1 X83.040 Y130.960 E56.00965
G1 X82.486 Y130.236 E56.14640
G1 X82.140 Y129.403 E56.28170
G1 X82.054 Y128.744 E56.38138
G1 X82.025 Y128.531 E56.41363
G1 X82.025 Y94.467 E61.52323
G1 X82.119 Y93.764 E61.62962
G1 X82.140 Y93.599 E61.65457
G1 X82.412 Y92.943 E61.76109
G1 X82.487 Y92.763 E61.79034
G1 X83.040 Y92.040 E61.92688
G0 F9000 X82.684 Y91.684
;TYPE:WALL-OUTER
G1 F1800 X83.510 Y91.051 E62.08298
G1 X84.470 Y90.652 E62.23892
G1 X85.438 Y90.525 E62.38536
G1 X137.563 Y90.525 E70.20411
G1 X138.530 Y90.652 E70.35041
G1 X139.491 Y91.050 E70.50643
G1 X140.317 Y91.686 E70.66280
G1 X140.950 Y92.508 E70.81843
G1 X141.347 Y93.469 E70.97439
G1 X141.475 Y94.438 E71.12100
G1 X141.475 Y128.562 E76.23960
G1 X141.347 Y129.530 E76.38607
G1 X140.950 Y130.491 E76.54203
G1 X140.314 Y131.317 E76.69841
G1 X139.492 Y131.950 E76.85403
G1 X138.531 Y132.347 E77.01000
G1 X137.562 Y132.475 E77.15661
G1 X85.439 Y132.475 E84.97506
G1 X84.469 Y132.348 E85.12180
G1 X83.510 Y131.949 E85.27760
G1 X82.684 Y131.316 E85.43370
G1 X82.051 Y130.490 E85.58980
G1 X81.652 Y129.530 E85.74574
G1 X81.525 Y128.562 E85.89219
G1 X81.525 Y94.438 E91.01079
G1 X81.653 Y93.470 E91.15725
G1 X82.051 Y92.510 E91.31314
G1 X82.684 Y91.684 E91.46923
G0 F9000 X83.256 Y92.095
;TYPE:SKIN
G1 F1800 X122.960 Y131.799 E99.89173
G0 F9000 X122.253 Y131.799
G1 F1800 X82.927 Y92.473 E108.23403
G0 F9000 X82.626 Y92.879
G1 F1800 X121.545 Y131.799 E116.49010
G0 F9000 X120.838 Y131.799
G1 F1800 X82.419 Y93.379 E124.64011
G0 F9000 X82.271 Y93.938
G1 F1800 X120.131 Y131.799 E132.67153
G0 F9000 X123.667 Y131.799
G1 F1800 X83.656 Y91.788 E141.15915
G0 F9000 X84.107 Y91.532
G1 F1800 X124.374 Y131.799 E149.70107
G0 F9000 X125.081 Y131.799
G1 F1800 X84.608 Y91.325 E158.28680
G0 F9000 X85.223 Y91.233
G1 F1800 X125.788 Y131.799 E166.89204
G0 F9000 X126.495 Y131.799
G1 F1800 X85.896 Y91.199 E175.50449
G0 F9000 X86.603 Y91.199
G1 F1800 X127.202 Y131.799 E184.11695
G0 F9000 X127.909 Y131.799
G1 F1800 X87.310 Y91.199 E192.72940
G0 F9000 X88.017 Y91.199
G1 F1800 X128.617 Y131.799 E201.34196
G0 F9000 X129.324 Y131.799
G1 F1800 X88.724 Y91.199 E209.95452
G0 F9000 X89.432 Y91.199
G1 F1800 X130.031 Y131.799 E218.56698
G0 F9000 X130.738 Y131.799
G1 F1800 X90.139 Y91.199 E227.17943
G0 F9000 X90.846 Y91.199
G1 F1800 X131.445 Y131.799 E235.79189
G0 F9000 X132.152 Y131.799
G1 F1800 X91.553 Y91.199 E244.40434
G0 F9000 X92.260 Y91.199
G1 F1800 X132.859 Y131.799 E253.01679
G0 F9000 X133.566 Y131.799
G1 F1800 X92.967 Y91.199 E261.62925
G0 F9000 X93.674 Y91.199
G1 F1800 X134.273 Y131.799 E270.24170
G0 F9000 X134.981 Y131.799
G1 F1800 X94.381 Y91.199 E278.85426
G0 F9000 X95.088 Y91.199
G1 F1800 X135.688 Y131.799 E287.46682
G0 F9000 X136.395 Y131.799
G1 F1800 X95.795 Y91.199 E296.07939
G0 F9000 X96.503 Y91.199
G1 F1800 X137.102 Y131.799 E304.69184
G0 F9000 X137.775 Y131.765
G1 F1800 X97.210 Y91.199 E313.29708
G0 F9000 X97.917 Y91.199
G1 F1800 X138.390 Y131.673 E321.88281
G0 F9000 X138.891 Y131.466
G1 F1800 X98.624 Y91.199 E330.42473
G0 F9000 X99.331 Y91.199
G1 F1800 X139.343 Y131.211 E338.91256
G0 F9000 X139.742 Y130.903
G1 F1800 X100.038 Y91.199 E347.33505
G0 F9000 X100.745 Y91.199
G1 F1800 X140.072 Y130.526 E355.67756
G0 F9000 X140.373 Y130.120
G1 F1800 X101.452 Y91.199 E363.93395
G0 F9000 X102.159 Y91.199
G1 F1800 X140.579 Y129.619 E372.08407
G0 F9000 X140.727 Y129.060
G1 F1800 X102.867 Y91.199 E380.11549
G0 F9000 X103.574 Y91.199
G1 F1800 X140.799 Y128.424 E388.01211
G0 F9000 X140.799 Y127.717
G1 F1800 X104.281 Y91.199 E395.75874
G0 F9000 X104.988 Y91.199
G1 F1800 X140.799 Y127.010 E403.35540
G0 F9000 X140.799 Y126.303
G1 F1800 X105.695 Y91.199 E410.80209
G0 F9000 X106.402 Y91.199
G1 F1800 X140.799 Y125.596 E418.09879
G0 F9000 X140.799 Y124.889
G1 F1800 X107.109 Y91.199 E425.24552
G0 F9000 X107.816 Y91.199
G1 F1800 X140.799 Y124.182 E432.24227
G0 F9000 X140.799 Y123.474
G1 F1800 X108.523 Y91.199 E439.08894
G0 F9000 X109.231 Y91.199
G1 F1800 X140.799 Y122.767 E445.78552
G0 F9000 X140.799 Y122.060
G1 F1800 X109.938 Y91.199 E452.33213
G0 F9000 X110.645 Y91.199
G1 F1800 X140.799 Y121.353 E458.72876
G0 F9000 X140.799 Y120.646
G1 F1800 X111.352 Y91.199 E464.97541
G0 F9000 X112.059 Y91.199
G1 F1800 X140.799 Y119.939 E471.07209
G0 F9000 X140.799 Y119.232
G1 F1800 X112.766 Y91.199 E477.01878
G0 F9000 X113.473 Y91.199
G1 F1800 X140.799 Y118.525 E482.81550
G0 F9000 X140.799 Y117.818
G1 F1800 X114.180 Y91.199 E488.46225
G0 F9000 X114.887 Y91.199
G1 F1800 X140.799 Y117.111 E493.95901
G0 F9000 X140.799 Y116.403
G1 F1800 X115.594 Y91.199 E499.30569
G0 F9000 X116.302 Y91.199
G1 F1800 X140.799 Y115.696 E504.50229
G0 F9000 X140.799 Y114.989
G1 F1800 X117.009 Y91.199 E509.54891
G0 F9000 X117.716 Y91.199
G1 F1800 X140.799 Y114.282 E514.44556
G0 F9000 X140.799 Y113.575
G1 F1800 X118.423 Y91.199 E519.19222
G0 F9000 X119.130 Y91.199
G1 F1800 X140.799 Y112.868 E523.78891
G0 F9000 X140.799 Y112.161
G1 F1800 X119.837 Y91.199 E528.23562
G0 F9000 X120.544 Y91.199
G1 F1800 X140.799 Y111.454 E532.53236
G0 F9000 X140.799 Y110.747
G1 F1800 X121.251 Y91.199 E536.67911
G0 F9000 X121.958 Y91.199
G1 F1800 X140.799 Y110.039 E540.67579
G0 F9000 X140.799 Y109.332
G1 F1800 X122.666 Y91.199 E544.52238
G0 F9000 X123.373 Y91.199
G1 F1800 X140.799 Y108.625 E548.21899
G0 F9000 X140.799 Y107.918
G1 F1800 X124.080 Y91.199 E551.76563
G0 F9000 X124.787 Y91.199
G1 F1800 X140.799 Y107.211 E555.16228
G0 F9000 X140.799 Y106.504
G1 F1800 X125.494 Y91.199 E558.40897
G0 F9000 X126.201 Y91.199
G1 F1800 X140.799 Y105.797 E561.50567
G0 F9000 X140.799 Y105.090
G1 F1800 X126.908 Y91.199 E564.45240
G0 F9000 X127.615 Y91.199
G1 F1800 X140.799 Y104.383 E567.24914
G0 F9000 X140.799 Y103.675
G1 F1800 X128.322 Y91.199 E569.89581
G0 F9000 X129.030 Y91.199
G1 F1800 X140.799 Y102.968 E572.39239
G0 F9000 X140.799 Y102.261
G1 F1800 X129.737 Y91.199 E574.73900
G0 F9000 X130.444 Y91.199
G1 F1800 X140.799 Y101.554 E576.93562
G0 F9000 X140.799 Y100.847
G1 F1800 X131.151 Y91.199 E578.98227
G0 F9000 X131.858 Y91.199
G1 F1800 X140.799 Y100.140 E580.87895
G0 F9000 X140.799 Y99.433
G1 F1800 X132.565 Y91.199 E582.62564
G0 F9000 X133.272 Y91.199
G1 F1800 X140.799 Y98.726 E584.22236
G0 F9000 X140.799 Y98.019
G1 F1800 X133.979 Y91.199 E585.66910
G0 F9000 X134.686 Y91.199
G1 F1800 X140.799 Y97.312 E586.96586
G0 F9000 X140.799 Y96.604
G1 F1800 X135.393 Y91.199 E588.11254
G0 F9000 X136.101 Y91.199
G1 F1800 X140.799 Y95.897 E589.10914
G0 F9000 X140.799 Y95.190
G1 F1800 X136.808 Y91.199 E589.95576
G0 F9000 X137.515 Y91.199
G1 F1800 X140.799 Y94.483 E590.65240
G0 F9000 X140.692 Y93.669
G1 F1800 X138.329 Y91.307 E591.15356
G0 F9000 X119.424 Y131.799
G1 F1800 X82.199 Y94.574 E599.05018
G0 F9000 X82.199 Y95.281
G1 F1800 X118.717 Y131.799 E606.79681
G0 F9000 X118.010 Y131.799
G1 F1800 X82.199 Y95.988 E614.39347
G0 F9000 X82.199 Y96.695
G1 F1800 X117.303 Y131.799 E621.84016
G0 F9000 X116.596 Y131.799
G1 F1800 X82.199 Y97.402 E629.13686
G0 F9000 X82.199 Y98.109
G1 F1800 X115.889 Y131.799 E636.28359
G0 F9000 X115.182 Y131.799
G1 F1800 X82.199 Y98.816 E643.28034
G0 F9000 X82.199 Y99.523
G1 F1800 X114.474 Y131.799 E650.12701
G0 F9000 X113.767 Y131.799
G1 F1800 X82.199 Y100.230 E656.82370
G0 F9000 X82.199 Y100.938
G1 F1800 X113.060 Y131.799 E663.37031
G0 F9000 X112.353 Y131.799
G1 F1800 X82.199 Y101.645 E669.76693
G0 F9000 X82.199 Y102.352
G1 F1800 X111.646 Y131.799 E676.01359
G0 F9000 X110.939 Y131.799
G1 F1800 X82.199 Y103.059 E682.11026
G0 F9000 X82.199 Y103.766
G1 F1800 X110.232 Y131.799 E688.05696
G0 F9000 X109.525 Y131.799
G1 F1800 X82.199 Y104.473 E693.85368
G0 F9000 X82.199 Y105.180
G1 F1800 X108.818 Y131.799 E699.50042
G0 F9000 X108.110 Y131.799
G1 F1800 X82.199 Y105.887 E704.99708
G0 F9000 X82.199 Y106.594
G1 F1800 X107.403 Y131.799 E710.34376
G0 F9000 X106.696 Y131.799
G1 F1800 X82.199 Y107.302 E715.54036
G0 F9000 X82.199 Y108.009
G1 F1800 X105.989 Y131.799 E720.58698
G0 F9000 X105.282 Y131.799
G1 F1800 X82.199 Y108.716 E725.48363
G0 F9000 X82.199 Y109.423
G1 F1800 X104.575 Y131.799 E730.23029
G0 F9000 X103.868 Y131.799
G1 F1800 X82.199 Y110.130 E734.82698
G0 F9000 X82.199 Y110.837
G1 F1800 X103.161 Y131.799 E739.27369
G0 F9000 X102.454 Y131.799
G1 F1800 X82.199 Y111.544 E743.57043
G0 F9000 X82.199 Y112.251
G1 F1800 X101.747 Y131.799 E747.71718
G0 F9000 X101.039 Y131.799
G1 F1800 X82.199 Y112.958 E751.71386
G0 F9000 X82.199 Y113.666
G1 F1800 X100.332 Y131.799 E755.56045
G0 F9000 X99.625 Y131.799
G1 F1800 X82.199 Y114.373 E759.25706
G0 F9000 X82.199 Y115.080
G1 F1800 X98.918 Y131.799 E762.80370
G0 F9000 X98.211 Y131.799
G1 F1800 X82.199 Y115.787 E766.20035
G0 F9000 X82.199 Y116.494
G1 F1800 X97.504 Y131.799 E769.44704
G0 F9000 X96.797 Y131.799
G1 F1800 X82.199 Y117.201 E772.54374
G0 F9000 X82.199 Y117.908
G1 F1800 X96.090 Y131.799 E775.49046
G0 F9000 X95.383 Y131.799
G1 F1800 X82.199 Y118.615 E778.28721
G0 F9000 X82.199 Y119.322
G1 F1800 X94.675 Y131.799 E780.93388
G0 F9000 X93.968 Y131.799
G1 F1800 X82.199 Y120.029 E783.43057
G0 F9000 X82.199 Y120.737
G1 F1800 X93.261 Y131.799 E785.77717
G0 F9000 X92.554 Y131.799
G1 F1800 X82.199 Y121.444 E787.97380
G0 F9000 X82.199 Y122.151
G1 F1800 X91.847 Y131.799 E790.02045
G0 F9000 X91.140 Y131.799
G1 F1800 X82.199 Y122.858 E791.91712
G0 F9000 X82.199 Y123.565
G1 F1800 X90.433 Y131.799 E793.66382
G0 F9000 X89.726 Y131.799
G1 F1800 X82.199 Y124.272 E795.26053
G0 F9000 X82.199 Y124.979
G1 F1800 X89.019 Y131.799 E796.70727
G0 F9000 X88.311 Y131.799
G1 F1800 X82.199 Y125.686 E798.00393
G0 F9000 X82.199 Y126.393
G1 F1800 X87.604 Y131.799 E799.15061
G0 F9000 X86.897 Y131.799
G1 F1800 X82.199 Y127.101 E800.14721
G0 F9000 X82.199 Y127.808
G1 F1800 X86.190 Y131.799 E800.99383
G0 F9000 X85.483 Y131.799
G1 F1800 X82.199 Y128.515 E801.69047
G0 F9000 X82.307 Y129.329
G1 F1800 X84.669 Y131.692 E802.19163
;LAYER:1
M106 S127
G0 F9000 X84.558 Y132.006 Z0.450
;TYPE:WALL-INNER
G1 F2520 X83.688 Y131.645 E802.26227
G1 X82.933 Y131.067 E802.33359
G1 X82.596 Y130.626 E802.37521
G1 X82.358 Y130.315 E802.40459
G1 X81.993 Y129.439 E802.47576
G1 X81.927 Y128.929 E802.51433
G1 X81.875 Y128.536 E802.54406
G1 X81.875 Y94.462 E805.09961
G1 X81.949 Y93.900 E805.14213
G1 X81.993 Y93.564 E805.16754
G1 X82.357 Y92.686 E805.23883
G1 X82.933 Y91.933 E805.30993
G1 X83.374 Y91.596 E805.35156
G1 X83.685 Y91.358 E805.38093
G1 X84.561 Y90.993 E805.45210
G1 X85.071 Y90.927 E805.49067
G1 X85.464 Y90.875 E805.52040
G1 X137.539 Y90.875 E809.42603
G1 X138.440 Y90.993 E809.49418
G1 X139.314 Y91.356 E809.56516
G1 X140.066 Y91.934 E809.63629
G1 X140.645 Y92.687 E809.70753
G1 X141.007 Y93.562 E809.77855
G1 X141.052 Y93.900 E809.80413
G1 X141.125 Y94.462 E809.84663
G1 X141.125 Y128.538 E812.40233
G1 X141.051 Y129.100 E812.44484
G1 X141.007 Y129.436 E812.47026
G1 X140.644 Y130.314 E812.54152
G1 X140.066 Y131.066 E812.61265
G1 X139.313 Y131.645 E812.68389
G1 X138.438 Y132.007 E812.75491
G1 X138.100 Y132.052 E812.78048
G1 X137.538 Y132.125 E812.82299
G1 X85.464 Y132.125 E816.72854
G1 X84.558 Y132.006 E816.79707
G0 F9000 X84.430 Y132.494
;TYPE:WALL-OUTER
G1 F1920 X83.431 Y132.079 E816.87820
G1 X82.578 Y131.426 E816.95877
G1 X81.920 Y130.566 E817.03999
G1 X81.506 Y129.569 E817.12095
G1 X81.375 Y128.572 E817.19637
G1 X81.375 Y94.428 E819.75717
G1 X81.507 Y93.431 E819.83260
G1 X81.921 Y92.431 E819.91377
G1 X82.574 Y91.578 E819.99434
G1 X83.434 Y90.920 E820.07555
G1 X84.431 Y90.506 E820.15652
G1 X85.428 Y90.375 E820.23194
G1 X137.573 Y90.375 E824.14281
G1 X138.569 Y90.506 E824.21816
G1 X139.569 Y90.920 E824.29933
G1 X140.423 Y91.577 E824.38014
G1 X141.081 Y92.432 E824.46106
G1 X141.493 Y93.430 E824.54203
G1 X141.625 Y94.428 E824.61754
G1 X141.625 Y128.572 E827.17834
G1 X141.493 Y129.569 E827.25376
G1 X141.080 Y130.569 E827.33491
G1 X140.423 Y131.423 E827.41572
G1 X139.568 Y132.081 E827.49663
G1 X138.570 Y132.493 E827.57761
G1 X137.572 Y132.625 E827.65311
G1 X85.429 Y132.625 E831.56384
G1 X84.430 Y132.494 E831.63941
G0 F9000 X84.859 Y131.868
;TYPE:SKIN
G1 F1740 X125.679 Y91.049 E835.96897
G0 F9000 X126.386 Y91.049
G1 F1740 X85.485 Y131.949 E840.30712
G0 F9000 X86.192 Y131.949
G1 F1740 X127.093 Y91.049 E844.64527
G0 F9000 X127.800 Y91.049
G1 F1740 X86.899 Y131.949 E848.98343
G0 F9000 X87.606 Y131.949
G1 F1740 X128.507 Y91.049 E853.32158
G0 F9000 X129.214 Y91.049
G1 F1740 X88.314 Y131.949 E857.65968
G0 F9000 X89.021 Y131.949
G1 F1740 X129.921 Y91.049 E861.99778
G0 F9000 X130.628 Y91.049
G1 F1740 X89.728 Y131.949 E866.33588
G0 F9000 X90.435 Y131.949
G1 F1740 X131.335 Y91.049 E870.67398
G0 F9000 X132.042 Y91.049
G1 F1740 X91.142 Y131.949 E875.01208
G0 F9000 X91.849 Y131.949
G1 F1740 X132.750 Y91.049 E879.35023
G0 F9000 X133.457 Y91.049
G1 F1740 X92.556 Y131.949 E883.68839
G0 F9000 X93.263 Y131.949
G1 F1740 X134.164 Y91.049 E888.02654
G0 F9000 X134.871 Y91.049
G1 F1740 X93.970 Y131.949 E892.36469
G0 F9000 X94.678 Y131.949
G1 F1740 X135.578 Y91.049 E896.70279
G0 F9000 X136.285 Y91.049
G1 F1740 X95.385 Y131.949 E901.04089
G0 F9000 X96.092 Y131.949
G1 F1740 X136.992 Y91.049 E905.37899
G0 F9000 X137.679 Y91.069
G1 F1740 X96.799 Y131.949 E909.71497
G0 F9000 X97.506 Y131.949
G1 F1740 X138.303 Y91.152 E914.04215
G0 F9000 X138.822 Y91.341
G1 F1740 X98.213 Y131.949 E918.34933
G0 F9000 X98.920 Y131.949
G1 F1740 X139.302 Y91.567 E922.63249
G0 F9000 X139.702 Y91.875
G1 F1740 X99.627 Y131.949 E926.88303
G0 F9000 X84.308 Y131.712
G1 F1740 X124.971 Y91.049 E931.19599
G0 F9000 X124.264 Y91.049
G1 F1740 X83.808 Y131.505 E935.48700
G0 F9000 X83.401 Y131.205
G1 F1740 X123.557 Y91.049 E939.74619
G0 F9000 X122.850 Y91.049
G1 F1740 X83.015 Y130.884 E943.97133
G0 F9000 X82.708 Y130.483
G1 F1740 X122.143 Y91.049 E948.15399
G0 F9000 X121.436 Y91.049
G1 F1740 X82.438 Y130.047 E952.29035
G0 F9000 X82.230 Y129.548
G1 F1740 X120.729 Y91.049 E956.37378
G0 F9000 X120.022 Y91.049
