;FLAVOR:UltiGCode
;TIME:727
;MATERIAL:1639
;MATERIAL2:0
;NOZZLE_DIAMETER:0.000000
;NOZZLE_DIAMETER2:0.000000

;Layer count: 28
;LAYER:0
M107
G0 F9000 X96.073 Y96.416 Z0.300
G0 X96.288 Y96.479
;TYPE:SKIRT
G1 F1800 X98.069 Y94.874 E0.35962
G1 X98.017 Y94.641 E0.39543
G1 X98.882 Y94.142 E0.54523
G1 X99.503 Y93.582 E0.67066
G1 X99.688 Y93.676 E0.70178
G1 X101.843 Y92.432 E1.07503
G1 X101.843 Y92.197 E1.11028
G1 X102.773 Y91.895 E1.25695
G1 X103.548 Y91.447 E1.39122
G1 X103.714 Y91.589 E1.42399
G1 X106.252 Y90.764 E1.82430
G1 X106.305 Y90.589 E1.85173
G1 X107.023 Y90.513 E1.96003
G1 X107.890 Y90.231 E2.09678
G1 X108.025 Y90.406 E2.12994
G1 X109.678 Y90.231 E2.37927
G1 X110.448 Y90.145 E2.49549
G1 X110.542 Y89.935 E2.53000
G1 X111.450 Y90.031 E2.66696
G1 X112.438 Y89.920 E2.81609
G1 X112.542 Y90.147 E2.85355
G1 X114.160 Y90.319 E3.09761
G1 X115.127 Y90.428 E3.24358
G1 X115.255 Y90.279 E3.27305
G1 X116.023 Y90.529 E3.39420
G1 X116.862 Y90.623 E3.52084
G1 X116.909 Y90.816 E3.55063
G1 X118.496 Y91.332 E3.80095
G1 X119.204 Y91.565 E3.91275
G1 X119.381 Y91.405 E3.94854
G1 X120.256 Y91.911 E4.10016
G1 X121.093 Y92.186 E4.23231
G1 X121.098 Y92.397 E4.26397
G1 X123.379 Y93.716 E4.65920
G1 X123.554 Y93.633 E4.68826
G1 X124.124 Y94.146 E4.80329
G1 X124.900 Y94.595 E4.93777
G1 X124.860 Y94.810 E4.97057
G1 X126.088 Y95.916 E5.21847
G1 X126.828 Y96.582 E5.36780
G1 X127.012 Y96.539 E5.39614
G1 X127.449 Y97.141 E5.50773
G1 X128.111 Y97.737 E5.64134
G1 X128.028 Y97.939 E5.67410
G1 X129.013 Y99.296 E5.92562
G1 X129.458 Y99.912 E6.03961
G1 X129.692 Y99.888 E6.07489
G1 X130.094 Y100.791 E6.22316
G1 X130.616 Y101.513 E6.35680
G1 X130.494 Y101.689 E6.38892
G1 X131.151 Y103.165 E6.63127
G1 X131.479 Y103.902 E6.75227
G1 X131.713 Y103.928 E6.78759
G1 X131.915 Y104.883 E6.93400
G1 X132.229 Y105.589 E7.04991
G1 X132.094 Y105.728 E7.07897
G1 X132.640 Y108.308 E7.47454
G1 X132.842 Y108.382 E7.50681
G1 X132.842 Y109.262 E7.63881
G1 X133.027 Y110.136 E7.77282
G1 X132.842 Y110.250 E7.80541
G1 X132.842 Y112.863 E8.19736
G1 X133.003 Y112.971 E8.22644
G1 X132.842 Y113.734 E8.34341
G1 X132.842 Y114.652 E8.48111
G1 X132.633 Y114.726 E8.51437
G1 X132.290 Y116.350 E8.76334
G1 X132.099 Y117.228 E8.89812
G1 X132.244 Y117.374 E8.92899
G1 X131.896 Y118.158 E9.05765
G1 X131.708 Y119.019 E9.18985
G1 X131.501 Y119.046 E9.22116
G1 X130.825 Y120.568 E9.47097
G1 X130.513 Y121.259 E9.58469
G1 X130.650 Y121.449 E9.61983
G1 X130.059 Y122.263 E9.77072
G1 X129.771 Y122.901 E9.87571
G1 X129.598 Y122.898 E9.90167
G1 X127.942 Y125.180 E10.32460
G1 X128.004 Y125.357 E10.35273
G1 X127.455 Y125.852 E10.46361
G1 X126.983 Y126.502 E10.58411
G1 X126.788 Y126.453 E10.61427
G1 X124.905 Y128.149 E10.99440
G1 X124.952 Y128.374 E11.02887
G1 X124.123 Y128.854 E11.17256
G1 X123.331 Y129.567 E11.33241
G1 X123.117 Y129.436 E11.37005
G1 X121.806 Y130.194 E11.59720
G1 X121.157 Y130.565 E11.70934
G1 X121.157 Y130.804 E11.74519
G1 X120.186 Y131.119 E11.89831
G1 X119.431 Y131.551 E12.02879
G1 X119.274 Y131.416 E12.05985
G1 X117.701 Y131.927 E12.30794
G1 X117.701 Y131.926 E12.30809
G1 X116.987 Y132.161 E12.42084
G1 X116.938 Y132.392 E12.45626
G1 X115.984 Y132.491 E12.60013
G1 X115.116 Y132.777 E12.73721
G1 X114.977 Y132.596 E12.77144
G1 X113.316 Y132.769 E13.02194
G1 X113.316 Y132.768 E13.02209
G1 X112.572 Y132.852 E13.13440
G1 X112.479 Y133.062 E13.16885
G1 X111.562 Y132.966 E13.30715
G1 X110.728 Y133.060 E13.43305
G1 X110.626 Y132.868 E13.46566
G1 X107.812 Y132.573 E13.89007
G1 X107.693 Y132.705 E13.91673
G1 X107.039 Y132.492 E14.01990
G1 X106.254 Y132.410 E14.13829
G1 X106.200 Y132.220 E14.16792
G1 X103.795 Y131.438 E14.54726
G1 X103.621 Y131.595 E14.58242
G1 X102.772 Y131.105 E14.72945
G1 X101.921 Y130.828 E14.86370
G1 X101.915 Y130.610 E14.89641
G1 X99.619 Y129.284 E15.29412
G1 X99.446 Y129.366 E15.32283
G1 X98.883 Y128.859 E15.43648
G1 X98.107 Y128.411 E15.57089
G1 X98.147 Y128.195 E15.60384
G1 X96.911 Y127.082 E15.85333
G1 X96.196 Y126.439 E15.99757
G1 X96.002 Y126.487 E16.02754
G1 X95.539 Y125.848 E16.14591
G1 X94.878 Y125.253 E16.27931
G1 X94.962 Y125.051 E16.31213
G1 X93.553 Y123.105 E16.67251
G1 X93.315 Y123.131 E16.70842
G1 X92.907 Y122.214 E16.85897
G1 X92.390 Y121.500 E16.99120
G1 X92.511 Y121.323 E17.02336
G1 X91.517 Y119.089 E17.39014
G1 X91.284 Y119.062 E17.42532
G1 X91.083 Y118.113 E17.57083
G1 X90.771 Y117.410 E17.68620
G1 X90.906 Y117.271 E17.71526
G1 X90.537 Y115.526 E17.98280
G1 X90.376 Y114.789 E18.09596
G1 X90.157 Y114.718 E18.13049
G1 X90.157 Y113.784 E18.27059
G1 X89.973 Y112.940 E18.40016
G1 X90.157 Y112.820 E18.43311
G1 X90.157 Y110.142 E18.83481
G1 X89.996 Y110.034 E18.86389
G1 X90.157 Y109.271 E18.98087
G1 X90.157 Y108.363 E19.11707
G1 X90.364 Y108.289 E19.15004
G1 X90.710 Y106.650 E19.40131
G1 X90.869 Y105.921 E19.51323
G1 X90.692 Y105.762 E19.54892
G1 X91.107 Y104.830 E19.70195
G1 X91.290 Y103.991 E19.83076
G1 X91.493 Y103.964 E19.86148
G1 X92.575 Y101.533 E20.26062
G1 X92.480 Y101.376 E20.28814
G1 X92.909 Y100.784 E20.39781
G1 X93.238 Y100.045 E20.51915
G1 X93.438 Y100.053 E20.54917
G1 X94.924 Y98.003 E20.92896
G1 X94.830 Y97.792 E20.96361
G1 X95.539 Y97.153 E21.10678
G1 X96.073 Y96.416 E21.24330
G1 X96.288 Y96.479 E21.27690
G0 F9000 X96.414 Y97.037
G1 F1800 X98.620 Y95.051 E21.72214
G1 X98.584 Y94.891 E21.74674
G1 X99.178 Y94.548 E21.84963
G1 X99.582 Y94.184 E21.93120
G1 X99.702 Y94.245 E21.95139
G1 X102.343 Y92.720 E22.40884
G1 X102.343 Y92.560 E22.43284
G1 X102.978 Y92.354 E22.53298
G1 X103.493 Y92.056 E22.62223
G1 X103.604 Y92.150 E22.64405
G1 X106.654 Y91.158 E23.12514
G1 X106.687 Y91.051 E23.14193
G1 X107.127 Y91.004 E23.20831
G1 X107.709 Y90.815 E23.30010
G1 X107.800 Y90.933 E23.32245
G1 X109.711 Y90.730 E23.61071
G1 X110.786 Y90.609 E23.77298
G1 X110.849 Y90.470 E23.79587
G1 X111.454 Y90.534 E23.88713
G1 X112.134 Y90.458 E23.98976
G1 X112.205 Y90.614 E24.01547
G1 X114.105 Y90.816 E24.30208
G1 X115.332 Y90.954 E24.48729
G1 X115.416 Y90.857 E24.50654
G1 X115.919 Y91.020 E24.58585
G1 X116.458 Y91.081 E24.66722
G1 X116.488 Y91.205 E24.68635
G1 X118.341 Y91.807 E24.97860
G1 X119.324 Y92.130 E25.13381
G1 X119.446 Y92.020 E25.15845
G1 X120.051 Y92.370 E25.26329
G1 X120.602 Y92.551 E25.35029
G1 X120.605 Y92.690 E25.37114
G1 X123.356 Y94.281 E25.84783
G1 X123.467 Y94.228 E25.86628
G1 X123.828 Y94.553 E25.93914
G1 X124.343 Y94.851 E26.02839
G1 X124.316 Y94.993 E26.05008
G1 X125.753 Y96.287 E26.34014
G1 X126.688 Y97.129 E26.52888
G1 X126.802 Y97.102 E26.54645
G1 X127.073 Y97.475 E26.61561
G1 X127.515 Y97.873 E26.70483
G1 X127.460 Y98.008 E26.72669
G1 X128.608 Y99.589 E27.01977
G1 X129.222 Y100.438 E27.17693
G1 X129.382 Y100.422 E27.20105
G1 X129.657 Y101.039 E27.30238
G1 X130.004 Y101.519 E27.39122
G1 X129.923 Y101.636 E27.41257
G1 X130.694 Y103.368 E27.69694
G1 X131.138 Y104.367 E27.86093
G1 X131.298 Y104.385 E27.88508
G1 X131.436 Y105.036 E27.98490
G1 X131.635 Y105.484 E28.05843
G1 X131.549 Y105.572 E28.07689
G1 X132.208 Y108.683 E28.55389
G1 X132.342 Y108.732 E28.57529
G1 X132.342 Y109.314 E28.66259
G1 X132.465 Y109.895 E28.75167
G1 X132.342 Y109.971 E28.77336
G1 X132.342 Y113.130 E29.24721
G1 X132.444 Y113.198 E29.26560
G1 X132.342 Y113.681 E29.33965
G1 X132.342 Y114.298 E29.43220
G1 X132.201 Y114.347 E29.45459
G1 X131.801 Y116.245 E29.74554
G1 X131.552 Y117.387 E29.92087
G1 X131.648 Y117.484 E29.94134
G1 X131.417 Y118.004 E30.02669
G1 X131.294 Y118.568 E30.11328
G1 X131.159 Y118.586 E30.13371
G1 X130.369 Y120.364 E30.42555
G1 X129.939 Y121.316 E30.58224
G1 X130.033 Y121.447 E30.60642
G1 X129.625 Y122.010 E30.71072
G1 X129.450 Y122.396 E30.77429
G1 X129.346 Y122.394 E30.78989
G1 X127.384 Y125.099 E31.29114
G1 X127.422 Y125.208 E31.30845
G1 X127.083 Y125.513 E31.37685
G1 X126.778 Y125.934 E31.45483
G1 X126.652 Y125.902 E31.47433
G1 X124.356 Y127.970 E31.93784
G1 X124.388 Y128.122 E31.96114
G1 X123.828 Y128.446 E32.05818
G1 X123.274 Y128.945 E32.17002
G1 X123.124 Y128.853 E32.19642
G1 X121.557 Y129.760 E32.46800
G1 X120.657 Y130.274 E32.62347
G1 X120.657 Y130.440 E32.64837
G1 X119.985 Y130.658 E32.75434
G1 X119.489 Y130.942 E32.84007
G1 X119.386 Y130.853 E32.86049
G1 X117.546 Y131.451 E33.15070
G1 X116.557 Y131.776 E33.30686
G1 X116.524 Y131.933 E33.33092
G1 X115.875 Y132.000 E33.42879
G1 X115.296 Y132.191 E33.52024
G1 X115.203 Y132.070 E33.54313
G1 X113.264 Y132.272 E33.83556
G1 X112.230 Y132.388 E33.99163
G1 X112.169 Y132.527 E34.01440
G1 X111.561 Y132.463 E34.10610
G1 X111.011 Y132.525 E34.18913
G1 X110.944 Y132.399 E34.21053
G1 X107.610 Y132.049 E34.71338
G1 X107.538 Y132.129 E34.72952
G1 X107.143 Y132.000 E34.79185
G1 X106.642 Y131.948 E34.86741
G1 X106.608 Y131.826 E34.88640
G1 X103.675 Y130.873 E35.34900
G1 X103.556 Y130.980 E35.37300
G1 X102.978 Y130.647 E35.47306
G1 X102.411 Y130.462 E35.56252
G1 X102.407 Y130.316 E35.58443
G1 X99.641 Y128.720 E36.06345
G1 X99.533 Y128.771 E36.08136
G1 X99.180 Y128.453 E36.15263
G1 X98.662 Y128.154 E36.24234
G1 X98.688 Y128.010 E36.26429
G1 X97.246 Y126.711 E36.55541
G1 X96.334 Y125.890 E36.73948
G1 X96.210 Y125.921 E36.75865
G1 X95.913 Y125.512 E36.83447
G1 X95.476 Y125.118 E36.92273
G1 X95.532 Y124.985 E36.94438
G1 X93.787 Y122.577 E37.39045
G1 X93.624 Y122.595 E37.41505
G1 X93.344 Y121.965 E37.51846
G1 X93.001 Y121.492 E37.60610
G1 X93.081 Y121.375 E37.62736
G1 X91.858 Y118.624 E38.07895
G1 X91.699 Y118.606 E38.10295
G1 X91.562 Y117.960 E38.20201
G1 X91.365 Y117.516 E38.27487
G1 X91.450 Y117.428 E38.29322
G1 X91.026 Y115.423 E38.60062
G1 X91.027 Y115.423 E38.60077
G1 X90.804 Y114.403 E38.75739
G1 X90.657 Y114.355 E38.78058
G1 X90.657 Y113.730 E38.87433
G1 X90.535 Y113.171 E38.96016
G1 X90.657 Y113.092 E38.98196
G1 X90.657 Y109.874 E39.46466
G1 X90.555 Y109.806 E39.48305
G1 X90.657 Y109.323 E39.55709
G1 X90.657 Y108.715 E39.64829
G1 X90.796 Y108.665 E39.67045
G1 X91.199 Y106.755 E39.96326
G1 X91.420 Y105.744 E40.11849
G1 X91.297 Y105.634 E40.14324
G1 X91.584 Y104.989 E40.24914
G1 X91.704 Y104.440 E40.33343
G1 X91.837 Y104.422 E40.35356
G1 X93.139 Y101.498 E40.83368
G1 X93.080 Y101.401 E40.85071
G1 X93.344 Y101.037 E40.91816
G1 X93.557 Y100.558 E40.99679
G1 X93.687 Y100.563 E41.01631
G1 X95.497 Y98.063 E41.47927
G1 X95.434 Y97.920 E41.50271
G1 X95.915 Y97.487 E41.59979
G1 X96.271 Y96.995 E41.69088
G1 X96.414 Y97.037 E41.71324
G10
G0 F9000 X100.367 Y99.074
;TYPE:WALL-INNER
G11
G1 F1800 X100.996 Y99.570 E41.83340
G1 X101.494 Y100.092 E41.94161
G1 X101.981 Y100.288 E42.02036
G1 X102.282 Y100.279 E42.06553
G1 X102.665 Y100.151 E42.12610
G1 X103.410 Y99.607 E42.26447
G1 X103.667 Y99.286 E42.32615
G1 X103.689 Y99.214 E42.33745
G1 X103.705 Y99.191 E42.34165
G1 X103.790 Y98.896 E42.38770
G1 X103.737 Y98.455 E42.45432
G1 X103.431 Y97.885 E42.55137
G1 X103.242 Y97.455 E42.62182
G1 X103.149 Y97.015 E42.68928
G1 X103.296 Y97.140 E42.71822
G1 X103.725 Y97.671 E42.82062
G1 X104.068 Y98.241 E42.92041
G1 X104.478 Y98.555 E42.99787
G1 X105.129 Y98.588 E43.09565
G1 X105.775 Y98.303 E43.20156
G1 X106.020 Y98.218 E43.24046
G1 X106.396 Y97.885 E43.31580
G1 X106.558 Y97.642 E43.35960
G1 X106.630 Y97.247 E43.41983
G1 X106.421 Y96.358 E43.55681
G1 X106.343 Y96.034 E43.60680
G1 X106.343 Y95.596 E43.67250
G1 X106.462 Y95.750 E43.70170
G1 X106.767 Y96.350 E43.80266
G1 X106.989 Y96.997 E43.90526
G1 X107.089 Y97.081 E43.92485
G1 X107.315 Y97.410 E43.98472
G1 X108.006 Y97.546 E44.09036
G1 X109.112 Y97.292 E44.26058
G1 X109.505 Y96.980 E44.33585
G1 X109.711 Y96.502 E44.41392
G1 X109.675 Y95.353 E44.58636
G1 X109.672 Y95.274 E44.59822
G1 X109.739 Y94.849 E44.66275
G1 X109.879 Y95.155 E44.71323
G1 X110.070 Y96.076 E44.85432
G1 X110.193 Y96.599 E44.93491
G1 X110.394 Y96.819 E44.97961
G1 X110.789 Y97.090 E45.05146
G1 X111.095 Y97.114 E45.09750
G1 X112.036 Y97.112 E45.23865
G1 X112.145 Y97.068 E45.25629
G1 X112.439 Y97.021 E45.30095
G1 X112.858 Y96.478 E45.40382
G1 X113.082 Y95.269 E45.58826
G1 X113.258 Y94.874 E45.65313
G1 X113.304 Y95.065 E45.68260
G1 X113.339 Y95.765 E45.78773
G1 X113.339 Y95.827 E45.79703
G1 X113.287 Y96.446 E45.89020
G1 X113.436 Y96.889 E45.96031
G1 X113.691 Y97.171 E46.01734
G1 X113.837 Y97.231 E46.04102
G1 X113.997 Y97.324 E46.06878
G1 X114.853 Y97.510 E46.20017
G1 X115.126 Y97.554 E46.24165
G1 X115.730 Y97.361 E46.33677
G1 X115.855 Y97.174 E46.37051
G1 X115.965 Y97.055 E46.39481
G1 X116.419 Y95.955 E46.57331
G1 X116.673 Y95.602 E46.63855
G1 X116.678 Y95.850 E46.67575
G1 X116.485 Y96.737 E46.81192
G1 X116.439 Y96.916 E46.83964
G1 X116.398 Y97.302 E46.89787
G1 X116.426 Y97.684 E46.95532
G1 X116.907 Y98.175 E47.05842
G1 X117.563 Y98.465 E47.16601
G1 X117.788 Y98.562 E47.20276
G1 X118.215 Y98.592 E47.26697
G1 X118.546 Y98.551 E47.31700
G1 X118.940 Y98.210 E47.39516
G1 X119.548 Y97.315 E47.55746
G1 X119.866 Y97.028 E47.62171
G1 X119.821 Y97.267 E47.65819
G1 X119.596 Y97.833 E47.74955
G1 X119.591 Y97.845 E47.75150
G1 X119.291 Y98.381 E47.84364
G1 X119.165 Y99.040 E47.94428
G1 X119.376 Y99.273 E47.99143
G1 X119.484 Y99.467 E48.02474
G1 X119.633 Y99.641 E48.05910
G1 X120.338 Y100.136 E48.18831
G1 X120.525 Y100.239 E48.22034
G1 X120.857 Y100.298 E48.27092
G1 X121.357 Y100.199 E48.34737
G1 X122.296 Y99.320 E48.54030
G1 X122.327 Y99.291 E48.54667
G1 X122.708 Y99.049 E48.61438
G1 X122.606 Y99.296 E48.65446
G1 X122.284 Y99.782 E48.74191
G1 X121.783 Y100.378 E48.85870
G1 X121.632 Y100.906 E48.94107
G1 X121.846 Y101.509 E49.03705
G1 X122.348 Y102.066 E49.14953
G1 X122.496 Y102.229 E49.18255
G1 X123.032 Y102.535 E49.27513
G1 X123.673 Y102.412 E49.37304
G1 X124.216 Y102.038 E49.47194
G1 X124.751 Y101.749 E49.56315
G1 X124.805 Y101.725 E49.57201
G1 X125.046 Y101.654 E49.60970
G1 X124.926 Y101.828 E49.64140
G1 X124.444 Y102.317 E49.74439
G1 X123.930 Y102.706 E49.84108
G1 X123.564 Y103.411 E49.96024
G1 X123.654 Y103.677 E50.00236
G1 X123.659 Y103.724 E50.00945
G1 X123.763 Y103.992 E50.05257
G1 X124.189 Y104.714 E50.17832
G1 X124.316 Y104.819 E50.20303
G1 X124.518 Y105.065 E50.25078
G1 X125.142 Y105.183 E50.34604
G1 X125.645 Y104.992 E50.42674
G1 X126.365 Y104.747 E50.54083
G1 X126.804 Y104.703 E50.60701
G1 X126.328 Y105.053 E50.69563
G1 X125.574 Y105.442 E50.82289
G1 X125.267 Y105.675 E50.88071
G1 X125.122 Y105.932 E50.92497
G1 X125.105 Y105.989 E50.93389
G1 X125.002 Y106.158 E50.96358
G1 X125.025 Y106.608 E51.03117
G1 X125.266 Y107.329 E51.14520
G1 X125.356 Y107.623 E51.19132
G1 X125.901 Y108.125 E51.30246
G1 X126.298 Y108.120 E51.36202
G1 X126.354 Y108.128 E51.37050
G1 X127.428 Y107.985 E51.53302
G1 X127.859 Y108.032 E51.59806
G1 X127.689 Y108.136 E51.62795
G1 X126.999 Y108.389 E51.73819
G1 X126.376 Y108.547 E51.83460
G1 X126.038 Y108.780 E51.89618
G1 X125.890 Y109.023 E51.93885
G1 X125.743 Y109.455 E52.00730
G1 X125.832 Y110.364 E52.14431
G1 X125.913 Y110.672 E52.19208
G1 X126.106 Y110.996 E52.24865
G1 X126.415 Y111.174 E52.30214
G1 X126.579 Y111.297 E52.33289
G1 X127.461 Y111.329 E52.46527
G1 X127.518 Y111.334 E52.47386
G1 X128.079 Y111.435 E52.55936
G1 X128.249 Y111.497 E52.58650
G1 X127.981 Y111.591 E52.62910
G1 X127.421 Y111.673 E52.71400
G1 X126.613 Y111.711 E52.83533
G1 X126.097 Y111.960 E52.92127
G1 X126.035 Y112.156 E52.95211
G1 X125.884 Y112.402 E52.99541
G1 X125.766 Y113.304 E53.13186
G1 X125.754 Y113.525 E53.16506
G1 X125.843 Y113.961 E53.23181
G1 X126.235 Y114.398 E53.31986
G1 X127.497 Y114.774 E53.51739
G1 X127.895 Y114.977 E53.58440
G1 X127.601 Y115.016 E53.62889
G1 X127.003 Y114.977 E53.71878
G1 X126.427 Y114.864 E53.80683
G1 X125.897 Y114.913 E53.88667
G1 X125.447 Y115.239 E53.97002
G1 X125.362 Y115.442 E54.00303
G1 X125.307 Y115.529 E54.01847
G1 X125.069 Y116.267 E54.13478
G1 X125.003 Y116.486 E54.16909
G1 X125.068 Y117.090 E54.26022
G1 X125.264 Y117.273 E54.30044
G1 X125.319 Y117.413 E54.32300
G1 X126.343 Y117.944 E54.49602
G1 X126.786 Y118.275 E54.57897
G1 X126.822 Y118.311 E54.58661
G1 X126.620 Y118.300 E54.61696
G1 X125.965 Y118.130 E54.71846
G1 X125.354 Y117.882 E54.81737
G1 X124.933 Y117.824 E54.88112
G1 X124.425 Y118.008 E54.96216
G1 X124.294 Y118.181 E54.99471
G1 X124.215 Y118.248 E55.01025
G1 X123.746 Y119.050 E55.14961
G1 X123.626 Y119.377 E55.20186
G1 X123.665 Y119.896 E55.27993
