;FLAVOR:UltiGCode
;TIME:179
;MATERIAL:360
;MATERIAL2:0
;NOZZLE_DIAMETER:0.000000
;NOZZLE_DIAMETER2:0.000000

;Layer count: 26
;LAYER:0
M107
G0 F9000 X94.811 Y106.030 Z0.300
;TYPE:SKIRT
G1 F1800 X95.362 Y105.625 E0.10257
G1 X95.942 Y105.276 E0.20411
G1 X96.575 Y104.975 E0.30925
G1 X97.224 Y104.746 E0.41248
G1 X97.880 Y104.581 E0.51395
G1 X98.560 Y104.479 E0.61709
G1 X99.256 Y104.444 E0.72162
G1 X99.982 Y104.483 E0.83068
G1 X100.669 Y104.592 E0.93502
G1 X100.682 Y104.595 E0.93702
G1 X114.962 Y105.145 E3.08060
G1 X115.074 Y104.339 E3.20267
G1 X116.649 Y102.490 E3.56700
G1 X119.058 Y101.768 E3.94423
G1 X120.941 Y102.390 E4.24169
G1 X122.257 Y103.324 E4.48375
G1 X129.305 Y108.332 E5.78066
G1 X130.416 Y109.511 E6.02366
G1 X130.860 Y111.639 E6.34973
G1 X130.331 Y113.493 E6.63893
G1 X129.385 Y114.609 E6.85838
G1 X128.146 Y115.489 E7.08634
G1 X120.959 Y120.596 E8.40885
G1 X119.113 Y121.228 E8.70152
G1 X116.657 Y120.531 E9.08447
G1 X115.073 Y118.649 E9.45345
G1 X114.962 Y117.855 E9.57371
G1 X101.799 Y118.360 E11.54961
G1 X98.902 Y118.473 E11.98449
G1 X98.770 Y118.429 E12.00537
G1 X98.526 Y118.415 E12.04203
G1 X97.769 Y118.300 E12.15688
G1 X96.636 Y117.956 E12.33449
G1 X95.916 Y117.607 E12.45451
G1 X95.345 Y117.263 E12.55450
G1 X94.803 Y116.862 E12.65563
G1 X94.286 Y116.391 E12.76054
G1 X93.813 Y115.864 E12.86676
G1 X93.408 Y115.312 E12.96946
G1 X93.057 Y114.720 E13.07269
G1 X92.763 Y114.090 E13.17697
G1 X92.542 Y113.453 E13.27811
G1 X92.382 Y112.822 E13.37576
G1 X92.280 Y112.140 E13.47919
G1 X92.245 Y111.442 E13.58403
G1 X92.284 Y110.724 E13.69188
G1 X92.402 Y109.962 E13.80755
G1 X92.743 Y108.839 E13.98359
G1 X93.129 Y108.038 E14.11697
G1 X93.774 Y107.073 E14.29107
G1 X94.297 Y106.496 E14.40788
G1 X94.811 Y106.030 E14.51195
G0 F9000 X95.128 Y106.417
G1 F1800 X95.640 Y106.041 E14.60724
G1 X96.179 Y105.717 E14.70157
G1 X96.766 Y105.437 E14.79913
G1 X97.369 Y105.225 E14.89500
G1 X97.978 Y105.071 E14.98923
G1 X98.610 Y104.977 E15.08507
G1 X99.255 Y104.945 E15.18194
G1 X99.929 Y104.981 E15.28318
G1 X100.569 Y105.082 E15.38037
G1 X100.609 Y105.092 E15.38656
G1 X115.394 Y105.661 E17.60595
G1 X115.549 Y104.552 E17.77392
G1 X116.934 Y102.926 E18.09430
G1 X119.051 Y102.292 E18.42579
G1 X120.713 Y102.841 E18.68834
G1 X121.967 Y103.731 E18.91900
G1 X128.975 Y108.711 E20.20858
G1 X129.955 Y109.752 E20.42304
G1 X130.345 Y111.620 E20.70928
G1 X129.880 Y113.252 E20.96382
G1 X129.045 Y114.237 E21.15752
G1 X127.858 Y115.080 E21.37590
G1 X120.728 Y120.146 E22.68788
G1 X119.099 Y120.704 E22.94616
G1 X116.941 Y120.092 E23.28263
G1 X115.548 Y118.437 E23.60711
G1 X115.394 Y117.339 E23.77342
G1 X101.779 Y117.861 E25.81717
G1 X98.973 Y117.970 E26.23839
G1 X98.863 Y117.933 E26.25580
G1 X98.578 Y117.917 E26.29862
G1 X97.880 Y117.811 E26.40452
G1 X96.818 Y117.489 E26.57098
G1 X96.155 Y117.167 E26.68154
G1 X95.623 Y116.847 E26.77466
G1 X95.121 Y116.475 E26.86838
G1 X94.641 Y116.039 E26.96565
G1 X94.202 Y115.548 E27.06445
G1 X93.826 Y115.036 E27.15973
G1 X93.500 Y114.486 E27.25563
G1 X93.227 Y113.902 E27.35233
G1 X93.021 Y113.310 E27.44636
G1 X92.873 Y112.724 E27.53702
G1 X92.778 Y112.090 E27.63318
G1 X92.746 Y111.443 E27.73035
G1 X92.781 Y110.776 E27.83053
G1 X92.891 Y110.074 E27.93712
G1 X93.210 Y109.022 E28.10201
G1 X93.564 Y108.286 E28.22452
G1 X94.169 Y107.381 E28.38781
G1 X94.651 Y106.850 E28.49538
G1 X95.128 Y106.417 E28.59201
G10
G0 F9000 X97.861 Y109.372
;TYPE:WALL-INNER
G11
G1 F1800 X98.074 Y109.244 E28.62929
G1 X98.294 Y109.140 E28.66579
G1 X98.761 Y108.999 E28.73896
G1 X99.009 Y108.962 E28.77657
G1 X99.248 Y108.950 E28.81247
G1 X99.504 Y108.964 E28.85093
G1 X99.767 Y109.005 E28.89085
G1 X100.034 Y109.073 E28.93218
G1 X120.020 Y109.842 E31.93230
G1 X119.493 Y106.881 E32.38343
G1 X125.992 Y111.499 E33.57933
G1 X119.494 Y116.116 E34.77501
G1 X120.021 Y113.158 E35.22570
G1 X99.547 Y113.945 E38.29907
G1 X99.521 Y113.936 E38.30319
G1 X99.242 Y113.948 E38.34508
G1 X98.986 Y113.934 E38.38354
G1 X98.772 Y113.901 E38.41602
G1 X98.279 Y113.752 E38.49327
G1 X97.849 Y113.518 E38.56670
G1 X97.662 Y113.380 E38.60157
G1 X97.314 Y113.027 E38.67592
G1 X97.162 Y112.820 E38.71444
G1 X97.044 Y112.621 E38.74915
G1 X96.935 Y112.388 E38.78773
G1 X96.857 Y112.164 E38.82331
G1 X96.800 Y111.938 E38.85827
G1 X96.763 Y111.688 E38.89618
G1 X96.751 Y111.449 E38.93207
G1 X96.765 Y111.190 E38.97098
G1 X96.799 Y110.970 E39.00437
G1 X96.948 Y110.480 E39.08120
G1 X97.049 Y110.271 E39.11601
G1 X97.328 Y109.854 E39.19127
G1 X97.483 Y109.682 E39.22600
G1 X97.861 Y109.372 E39.29933
G0 F9000 X98.136 Y109.782
G1 F1800 X97.831 Y110.030 E39.35830
G1 X97.583 Y110.335 E39.41726
G1 X97.397 Y110.681 E39.47619
G1 X97.282 Y111.061 E39.53574
G1 X97.246 Y111.449 E39.59419
G1 X97.282 Y111.838 E39.65279
G1 X97.397 Y112.218 E39.71234
G1 X97.583 Y112.564 E39.77127
G1 X97.831 Y112.869 E39.83023
G1 X98.136 Y113.117 E39.88920
G1 X98.482 Y113.303 E39.94812
G1 X98.862 Y113.418 E40.00767
G1 X99.250 Y113.454 E40.06612
G1 X99.639 Y113.418 E40.12472
G1 X100.019 Y113.303 E40.18428
G1 X100.365 Y113.117 E40.24320
G1 X100.670 Y112.869 E40.30217
G1 X100.918 Y112.564 E40.36113
G1 X101.104 Y112.218 E40.42005
G1 X101.218 Y111.839 E40.47942
G1 X101.257 Y111.449 E40.53821
G1 X101.218 Y111.060 E40.59686
G1 X101.104 Y110.681 E40.65622
G1 X100.918 Y110.335 E40.71515
G1 X100.670 Y110.030 E40.77411
G1 X100.365 Y109.782 E40.83308
G1 X100.019 Y109.596 E40.89200
G1 X99.639 Y109.481 E40.95155
G1 X99.250 Y109.445 E41.01015
G1 X98.862 Y109.481 E41.06860
G1 X98.482 Y109.596 E41.12815
G1 X98.136 Y109.782 E41.18708
G0 F9000 X98.415 Y110.200
;TYPE:WALL-OUTER
G1 F1800 X98.186 Y110.385 E41.23124
G1 X98.001 Y110.614 E41.27540
G1 X97.861 Y110.874 E41.31969
G1 X97.775 Y111.158 E41.36420
G1 X97.748 Y111.449 E41.40804
G1 X97.775 Y111.741 E41.45203
G1 X97.861 Y112.025 E41.49654
G1 X98.001 Y112.285 E41.54083
G1 X98.186 Y112.514 E41.58499
G1 X98.415 Y112.699 E41.62915
G1 X98.675 Y112.839 E41.67344
G1 X98.959 Y112.925 E41.71795
G1 X99.250 Y112.952 E41.76179
G1 X99.542 Y112.925 E41.80578
G1 X99.826 Y112.839 E41.85029
G1 X100.086 Y112.699 E41.89458
G1 X100.315 Y112.514 E41.93874
G1 X100.500 Y112.285 E41.98290
G1 X100.640 Y112.025 E42.02719
G1 X100.725 Y111.742 E42.07152
G1 X100.754 Y111.449 E42.11568
G1 X100.725 Y111.157 E42.15970
G1 X100.640 Y110.874 E42.20402
G1 X100.500 Y110.614 E42.24831
G1 X100.315 Y110.385 E42.29247
G1 X100.086 Y110.200 E42.33663
G1 X99.826 Y110.060 E42.38093
G1 X99.542 Y109.974 E42.42544
G1 X99.250 Y109.947 E42.46942
G1 X98.959 Y109.974 E42.51326
G1 X98.675 Y110.060 E42.55777
G1 X98.415 Y110.200 E42.60207
G0 F9000 X97.581 Y108.958
G1 F1800 X97.836 Y108.804 E42.64675
G1 X98.101 Y108.678 E42.69076
G1 X98.664 Y108.507 E42.77902
G1 X98.951 Y108.465 E42.82253
G1 X99.250 Y108.450 E42.86744
G1 X99.562 Y108.466 E42.91430
G1 X100.106 Y108.576 E42.99755
G1 X119.419 Y109.319 E45.89664
G1 X118.858 Y106.165 E46.37717
G1 X118.875 Y106.044 E46.39550
G1 X118.928 Y105.982 E46.40773
G1 X119.000 Y105.961 E46.41898
G1 X119.114 Y105.998 E46.43696
G1 X126.667 Y111.365 E47.82681
G1 X126.730 Y111.432 E47.84061
G1 X126.743 Y111.492 E47.84981
G1 X126.722 Y111.564 E47.86106
G1 X126.659 Y111.639 E47.87576
G1 X119.115 Y116.999 E49.26390
G1 X119.001 Y117.038 E49.28197
G1 X118.927 Y117.017 E49.29351
G1 X118.875 Y116.955 E49.30565
G1 X118.858 Y116.834 E49.32398
G1 X119.420 Y113.681 E49.80438
G1 X99.474 Y114.447 E52.79849
G1 X99.450 Y114.439 E52.80228
G1 X99.236 Y114.448 E52.83441
G1 X98.936 Y114.431 E52.87948
G1 X98.655 Y114.389 E52.92210
G1 X98.099 Y114.220 E53.00927
G1 X97.822 Y114.085 E53.05549
G1 X97.573 Y113.936 E53.09901
G1 X97.130 Y113.571 E53.18511
G1 X96.925 Y113.343 E53.23111
G1 X96.745 Y113.097 E53.27683
G1 X96.602 Y112.856 E53.31886
G1 X96.472 Y112.576 E53.36517
G1 X96.376 Y112.300 E53.40900
G1 X96.308 Y112.036 E53.44989
G1 X96.265 Y111.742 E53.49446
G1 X96.251 Y111.449 E53.53846
G1 X96.268 Y111.136 E53.58548
G1 X96.311 Y110.855 E53.62812
G1 X96.480 Y110.298 E53.71544
G1 X96.610 Y110.028 E53.76039
G1 X96.937 Y109.540 E53.84850
G1 X97.129 Y109.328 E53.89140
G1 X97.348 Y109.129 E53.93579
G1 X97.581 Y108.958 E53.97914
G0 F9000 X97.775 Y109.249
G0 X97.333 Y111.827
G0 X98.165 Y113.074
G0 X99.772 Y113.560
;TYPE:SKIN
G1 F1800 X100.120 Y113.556 E54.01944
G1 X100.670 Y113.398 E54.09652
G1 X101.324 Y113.699 E54.20452
G0 F9000 X102.006 Y113.673
G1 F1800 X101.032 Y112.700 E54.41103
G0 F9000 X101.278 Y112.239
G1 F1800 X102.687 Y113.647 E54.70981
G0 F9000 X103.368 Y113.621
G1 F1800 X101.410 Y111.663 E55.12517
G0 F9000 X101.351 Y110.896
G1 F1800 X104.049 Y113.595 E55.69761
G0 F9000 X104.730 Y113.569
G1 F1800 X100.423 Y109.262 E56.61126
G0 F9000 X101.158 Y109.290
G1 F1800 X105.411 Y113.542 E57.51335
G0 F9000 X106.092 Y113.516
G1 F1800 X101.894 Y109.318 E58.40388
G0 F9000 X102.629 Y109.346
G1 F1800 X106.773 Y113.490 E59.28296
G0 F9000 X107.454 Y113.464
G1 F1800 X103.364 Y109.375 E60.15047
G0 F9000 X104.100 Y109.403
G1 F1800 X108.135 Y113.438 E61.00642
G0 F9000 X108.815 Y113.412
G1 F1800 X104.835 Y109.431 E61.85081
G0 F9000 X105.571 Y109.460
G1 F1800 X109.496 Y113.385 E62.68343
G0 F9000 X110.178 Y113.360
G1 F1800 X106.307 Y109.489 E63.50460
G0 F9000 X107.042 Y109.517
G1 F1800 X110.859 Y113.334 E64.31430
G0 F9000 X111.540 Y113.308
G1 F1800 X107.777 Y109.545 E65.11256
G0 F9000 X108.513 Y109.573
G1 F1800 X112.221 Y113.282 E65.89925
G0 F9000 X112.902 Y113.255
G1 F1800 X109.248 Y109.602 E66.67427
G0 F9000 X109.984 Y109.630
G1 F1800 X113.583 Y113.229 E67.43774
G0 F9000 X114.264 Y113.203
G1 F1800 X110.719 Y109.658 E68.18974
G0 F9000 X111.454 Y109.687
G1 F1800 X114.945 Y113.177 E68.93019
G0 F9000 X115.626 Y113.151
G1 F1800 X112.190 Y109.715 E69.65908
G0 F9000 X112.925 Y109.743
G1 F1800 X116.307 Y113.125 E70.37651
G0 F9000 X116.987 Y113.098
G1 F1800 X113.661 Y109.771 E71.08216
G0 F9000 X114.397 Y109.800
G1 F1800 X117.668 Y113.072 E71.77615
G0 F9000 X118.349 Y113.046
G1 F1800 X115.132 Y109.829 E72.45858
G0 F9000 X115.867 Y109.857
G1 F1800 X119.031 Y113.021 E73.12977
G0 F9000 X119.712 Y112.994
G1 F1800 X116.603 Y109.885 E73.78929
G0 F9000 X117.338 Y109.914
G1 F1800 X121.733 Y114.308 E74.72150
G0 F9000 X122.146 Y114.014
G1 F1800 X118.074 Y109.942 E75.58530
G0 F9000 X118.809 Y109.970
G1 F1800 X122.559 Y113.721 E76.38090
G0 F9000 X122.973 Y113.427
G1 F1800 X119.544 Y109.998 E77.10830
G0 F9000 X119.870 Y109.711
G0 X119.911 Y108.244
G1 F1800 X124.213 Y112.546 E78.02090
G0 F9000 X123.800 Y112.840
G1 F1800 X120.065 Y109.105 E78.81321
G0 F9000 X120.219 Y109.966
G1 F1800 X123.386 Y113.133 E79.48503
G0 F9000 X124.626 Y112.252
G1 F1800 X119.771 Y107.397 E80.51493
G0 F9000 X119.935 Y114.631
G1 F1800 X120.493 Y115.189 E80.63330
G0 F9000 X120.906 Y114.895
G1 F1800 X120.041 Y114.031 E80.81669
G0 F9000 X120.149 Y113.431
G1 F1800 X121.319 Y114.602 E81.06499
G0 F9000 X120.079 Y115.483
G1 F1800 X119.827 Y115.231 E81.11845
G0 F9000 X125.040 Y111.959
G1 F1800 X121.861 Y108.779 E81.79292
G0 F9000 X124.305 Y110.516
G1 F1800 X125.454 Y111.665 E82.03666
;LAYER:1
M106 S127
G0 F9000 X125.993 Y111.499 Z0.450
;TYPE:WALL-INNER
G1 F2520 X119.493 Y116.118 E82.63471
G1 X120.020 Y113.158 E82.86021
G1 X99.548 Y113.945 E84.39674
G1 X99.519 Y113.935 E84.39904
G1 X99.257 Y113.948 E84.41871
G1 X98.996 Y113.933 E84.43832
G1 X98.514 Y113.836 E84.47520
G1 X98.284 Y113.753 E84.49354
G1 X97.849 Y113.518 E84.53062
G1 X97.662 Y113.379 E84.54809
G1 X97.489 Y113.222 E84.56561
G1 X97.315 Y113.028 E84.58516
G1 X97.040 Y112.615 E84.62237
G1 X96.941 Y112.398 E84.64026
G1 X96.798 Y111.922 E84.67754
G1 X96.763 Y111.688 E84.69528
G1 X96.751 Y111.449 E84.71323
G1 X96.766 Y111.197 E84.73216
G1 X96.865 Y110.712 E84.76929
G1 X96.951 Y110.473 E84.78834
G1 X97.060 Y110.250 E84.80695
G1 X97.188 Y110.041 E84.82534
G1 X97.332 Y109.849 E84.84334
G1 X97.483 Y109.682 E84.86022
G1 X97.846 Y109.384 E84.89545
G1 X98.287 Y109.146 E84.93303
G1 X98.529 Y109.058 E84.95234
G1 X98.761 Y108.999 E84.97030
G1 X99.009 Y108.962 E84.98910
G1 X99.245 Y108.950 E85.00682
G1 X99.503 Y108.965 E85.02621
G1 X100.054 Y109.074 E85.06833
G1 X120.020 Y109.842 E86.56689
G1 X119.493 Y106.880 E86.79253
G1 X125.993 Y111.499 E87.39058
G0 F9000 X101.257 Y111.449
G1 F2520 X101.218 Y111.060 E87.41990
G1 X101.104 Y110.681 E87.44959
G1 X100.918 Y110.335 E87.47905
G1 X100.670 Y110.030 E87.50853
G1 X100.365 Y109.782 E87.53801
G1 X100.019 Y109.596 E87.56748
G1 X99.639 Y109.481 E87.59725
G1 X99.250 Y109.445 E87.62655
G1 X98.862 Y109.481 E87.65578
G1 X98.482 Y109.596 E87.68555
G1 X98.136 Y109.782 E87.71501
G1 X97.831 Y110.030 E87.74450
G1 X97.583 Y110.335 E87.77398
G1 X97.397 Y110.681 E87.80344
G1 X97.282 Y111.061 E87.83322
G1 X97.246 Y111.449 E87.86244
G1 X97.282 Y111.838 E87.89174
G1 X97.397 Y112.218 E87.92152
G1 X97.583 Y112.564 E87.95098
G1 X97.831 Y112.869 E87.98046
G1 X98.136 Y113.117 E88.00995
G1 X98.482 Y113.303 E88.03941
G1 X98.862 Y113.418 E88.06919
G1 X99.250 Y113.454 E88.09841
G1 X99.639 Y113.418 E88.12771
G1 X100.019 Y113.303 E88.15749
G1 X100.365 Y113.117 E88.18695
G1 X100.670 Y112.869 E88.21643
G1 X100.918 Y112.564 E88.24591
G1 X101.104 Y112.218 E88.27538
G1 X101.218 Y111.839 E88.30506
G1 X101.257 Y111.449 E88.33445
G0 F9000 X100.754 Y111.449
;TYPE:WALL-OUTER
G1 F1920 X100.725 Y111.157 E88.35646
G1 X100.640 Y110.874 E88.37862
G1 X100.500 Y110.614 E88.40077
G1 X100.315 Y110.385 E88.42285
G1 X100.086 Y110.200 E88.44493
G1 X99.826 Y110.060 E88.46708
G1 X99.542 Y109.974 E88.48933
G1 X99.250 Y109.947 E88.51133
G1 X98.959 Y109.974 E88.53324
G1 X98.675 Y110.060 E88.55550
G1 X98.415 Y110.200 E88.57765
G1 X98.186 Y110.385 E88.59973
G1 X98.001 Y110.614 E88.62181
G1 X97.861 Y110.874 E88.64395
G1 X97.775 Y111.158 E88.66621
G1 X97.748 Y111.449 E88.68813
G1 X97.775 Y111.741 E88.71012
G1 X97.861 Y112.025 E88.73238
G1 X98.001 Y112.285 E88.75452
G1 X98.186 Y112.514 E88.77660
G1 X98.415 Y112.699 E88.79868
G1 X98.675 Y112.839 E88.82083
G1 X98.959 Y112.925 E88.84308
G1 X99.250 Y112.952 E88.86500
G1 X99.542 Y112.925 E88.88700
G1 X99.826 Y112.839 E88.90925
G1 X100.086 Y112.699 E88.93140
G1 X100.315 Y112.514 E88.95348
G1 X100.500 Y112.285 E88.97556
G1 X100.640 Y112.025 E88.99770
G1 X100.725 Y111.742 E89.01987
G1 X100.754 Y111.449 E89.04195
G0 F9000 X101.101 Y111.482
G0 X100.875 Y110.364
G0 X100.099 Y108.924
G0 X100.113 Y108.576
G1 F1920 X119.419 Y109.319 E90.49097
G1 X118.858 Y106.165 E90.73123
G1 X118.875 Y106.044 E90.74040
G1 X118.928 Y105.982 E90.74651
G1 X119.000 Y105.961 E90.75214
G1 X119.114 Y105.998 E90.76113
G1 X126.667 Y111.365 E91.45605
G1 X126.730 Y111.432 E91.46295
G1 X126.743 Y111.492 E91.46756
G1 X126.722 Y111.564 E91.47318
G1 X126.659 Y111.639 E91.48053
G1 X119.115 Y116.999 E92.17460
G1 X119.001 Y117.038 E92.18363
G1 X118.927 Y117.017 E92.18940
G1 X118.875 Y116.955 E92.19547
G1 X118.858 Y116.834 E92.20464
G1 X119.419 Y113.681 E92.44482
G1 X99.474 Y114.447 E93.94180
G1 X99.450 Y114.439 E93.94370
G1 X99.252 Y114.448 E93.95856
G1 X98.931 Y114.430 E93.98268
G1 X98.376 Y114.318 E94.02514
G1 X98.084 Y114.213 E94.04841
G1 X97.580 Y113.941 E94.09137
G1 X97.345 Y113.767 E94.11330
G1 X97.131 Y113.572 E94.13501
G1 X96.920 Y113.335 E94.15881
G1 X96.603 Y112.859 E94.20170
G1 X96.471 Y112.573 E94.22533
G1 X96.308 Y112.029 E94.26792
G1 X96.265 Y111.742 E94.28969
G1 X96.251 Y111.449 E94.31169
G1 X96.269 Y111.132 E94.33550
G1 X96.383 Y110.574 E94.37821
G1 X96.488 Y110.281 E94.40156
G1 X96.624 Y110.003 E94.42477
G1 X96.770 Y109.765 E94.44571
G1 X96.952 Y109.524 E94.46836
G1 X97.129 Y109.328 E94.48817
G1 X97.348 Y109.129 E94.51036
G1 X97.576 Y108.962 E94.53156
G1 X98.084 Y108.687 E94.57488
G1 X98.384 Y108.578 E94.59882
G1 X98.664 Y108.507 E94.62048
G1 X98.951 Y108.465 E94.64224
G1 X99.249 Y108.450 E94.66462
G1 X99.570 Y108.468 E94.68873
G1 X100.113 Y108.576 E94.73025
G0 F9000 X100.396 Y109.260
;TYPE:SKIN
G1 F1740 X100.392 Y109.617 E94.75360
G1 X101.077 Y109.286 E94.81066
G0 F9000 X101.758 Y109.313
G1 F1740 X100.962 Y110.109 E94.89509
G0 F9000 X101.231 Y110.546
G1 F1740 X102.439 Y109.339 E95.02316
G0 F9000 X103.120 Y109.365
G1 F1740 X101.396 Y111.089 E95.20602
G0 F9000 X101.397 Y111.794
G1 F1740 X103.801 Y109.391 E95.46095
G0 F9000 X104.482 Y109.417
