;FLAVOR:UltiGCode
;TIME:2022
;MATERIAL:1680
;MATERIAL2:0
;NOZZLE_DIAMETER:0.000000
;NOZZLE_DIAMETER2:0.000000

;Layer count: 41
;LAYER:0
M107
G0 F9000 X96.133 Y96.590 Z0.300
G0 X96.325 Y96.646
;TYPE:SKIRT
G1 F1200 X98.237 Y94.925 E0.30870
G1 X98.190 Y94.714 E0.33464
G1 X98.971 Y94.263 E0.44286
G1 X99.526 Y93.763 E0.53250
G1 X99.691 Y93.847 E0.55472
G1 X101.993 Y92.518 E0.87369
G1 X101.993 Y92.306 E0.89913
G1 X102.833 Y92.033 E1.00512
G1 X103.529 Y91.631 E1.10157
G1 X103.678 Y91.758 E1.12506
G1 X106.372 Y90.882 E1.46501
G1 X106.419 Y90.727 E1.48444
G1 X107.055 Y90.660 E1.56118
G1 X107.835 Y90.406 E1.65962
G1 X107.957 Y90.564 E1.68358
G1 X109.686 Y90.381 E1.89222
G1 X110.538 Y90.284 E1.99512
G1 X110.622 Y90.095 E2.01994
G1 X111.442 Y90.182 E2.11889
G1 X112.348 Y90.079 E2.22831
G1 X112.443 Y90.288 E2.25586
G1 X114.137 Y90.467 E2.46027
G1 X115.199 Y90.588 E2.58853
G1 X115.314 Y90.456 E2.60954
G1 X116.003 Y90.680 E2.69648
G1 X116.742 Y90.764 E2.78573
G1 X116.783 Y90.933 E2.80660
G1 X118.441 Y91.471 E3.01577
G1 X119.240 Y91.734 E3.11671
G1 X119.401 Y91.589 E3.14271
G1 X120.198 Y92.050 E3.25320
G1 X120.945 Y92.296 E3.34758
G1 X120.950 Y92.484 E3.37014
G1 X123.376 Y93.888 E3.70650
G1 X123.530 Y93.815 E3.72695
G1 X124.032 Y94.267 E3.80801
G1 X124.733 Y94.672 E3.90516
G1 X124.697 Y94.865 E3.92872
G1 X125.988 Y96.027 E4.13715
G1 X126.779 Y96.746 E4.26543
G1 X126.950 Y96.706 E4.28650
G1 X127.364 Y97.277 E4.37114
G1 X127.928 Y97.790 E4.46263
G1 X127.858 Y97.960 E4.48469
G1 X128.869 Y99.355 E4.69143
G1 X129.394 Y100.069 E4.79778
G1 X129.597 Y100.048 E4.82227
G1 X129.933 Y100.800 E4.92110
G1 X130.445 Y101.496 E5.02479
G1 X130.322 Y101.673 E5.05065
G1 X131.014 Y103.223 E5.25435
G1 X131.374 Y104.042 E5.36170
G1 X131.588 Y104.066 E5.38755
G1 X131.777 Y104.959 E5.49708
G1 X132.045 Y105.568 E5.57692
G1 X131.931 Y105.685 E5.59652
G1 X132.511 Y108.421 E5.93214
G1 X132.692 Y108.487 E5.95526
G1 X132.692 Y109.276 E6.04994
G1 X132.859 Y110.064 E6.14660
G1 X132.692 Y110.167 E6.17015
G1 X132.692 Y112.984 E6.50819
G1 X132.827 Y113.078 E6.52793
G1 X132.692 Y113.718 E6.60642
G1 X132.692 Y114.546 E6.70578
G1 X132.503 Y114.612 E6.72980
G1 X132.145 Y116.310 E6.93804
G1 X131.935 Y117.273 E7.05631
G1 X132.066 Y117.404 E7.07855
G1 X131.751 Y118.113 E7.17164
G1 X131.583 Y118.883 E7.26622
G1 X131.399 Y118.907 E7.28849
G1 X130.693 Y120.497 E7.49725
G1 X130.341 Y121.277 E7.59994
G1 X130.465 Y121.449 E7.62538
G1 X129.932 Y122.184 E7.73433
G1 X129.677 Y122.748 E7.80861
G1 X129.524 Y122.745 E7.82697
G1 X127.774 Y125.157 E8.18457
G1 X127.828 Y125.313 E8.20438
G1 X127.344 Y125.749 E8.28255
G1 X126.921 Y126.332 E8.36898
G1 X126.746 Y126.288 E8.39064
G1 X124.739 Y128.096 E8.71479
G1 X124.782 Y128.301 E8.73993
G1 X124.027 Y128.737 E8.84455
G1 X123.309 Y129.384 E8.96053
G1 X123.115 Y129.264 E8.98790
G1 X121.744 Y130.056 E9.17790
G1 X121.007 Y130.486 E9.28029
G1 X121.007 Y130.695 E9.30537
G1 X120.204 Y130.956 E9.40670
G1 X119.470 Y131.385 E9.50872
G1 X119.309 Y131.247 E9.53416
G1 X117.663 Y131.781 E9.74182
G1 X116.837 Y132.053 E9.84617
G1 X116.792 Y132.257 E9.87124
G1 X115.953 Y132.344 E9.97246
G1 X115.171 Y132.602 E10.07128
G1 X115.045 Y132.439 E10.09600
G1 X113.308 Y132.619 E10.30556
G1 X112.469 Y132.714 E10.40688
G1 X112.386 Y132.901 E10.43143
G1 X111.574 Y132.816 E10.52940
G1 X110.810 Y132.903 E10.62168
G1 X110.717 Y132.726 E10.64567
G1 X107.753 Y132.416 E11.00329
G1 X107.648 Y132.533 E11.02215
G1 X107.070 Y132.345 E11.09509
G1 X106.372 Y132.272 E11.17931
G1 X106.324 Y132.102 E11.20051
G1 X103.755 Y131.267 E11.52466
G1 X103.598 Y131.408 E11.54998
G1 X102.834 Y130.967 E11.65584
G1 X102.069 Y130.718 E11.75238
G1 X102.063 Y130.522 E11.77591
G1 X99.622 Y129.112 E12.11419
G1 X99.470 Y129.184 E12.13437
G1 X98.976 Y128.739 E12.21416
G1 X98.272 Y128.333 E12.31168
G1 X98.308 Y128.138 E12.33547
G1 X97.012 Y126.972 E12.54467
G1 X96.243 Y126.273 E12.66938
G1 X96.065 Y126.317 E12.69138
G1 X95.628 Y125.714 E12.78074
G1 X95.063 Y125.200 E12.87240
G1 X95.133 Y125.031 E12.89435
G1 X93.623 Y122.947 E13.20318
G1 X93.408 Y122.970 E13.22913
G1 X93.038 Y122.139 E13.33828
G1 X92.574 Y121.498 E13.43324
G1 X92.683 Y121.339 E13.45637
G1 X91.621 Y118.953 E13.76978
G1 X91.409 Y118.929 E13.79538
G1 X91.227 Y118.066 E13.90122
G1 X90.948 Y117.439 E13.98357
G1 X91.068 Y117.315 E14.00428
G1 X90.686 Y115.504 E14.22638
G1 X90.500 Y114.655 E14.33067
G1 X90.307 Y114.591 E14.35507
G1 X90.307 Y113.770 E14.45359
G1 X90.141 Y113.010 E14.54694
G1 X90.307 Y112.902 E14.57071
G1 X90.307 Y110.066 E14.91103
G1 X90.163 Y109.970 E14.93180
G1 X90.307 Y109.287 E15.01556
G1 X90.307 Y108.469 E15.11372
G1 X90.494 Y108.402 E15.13756
G1 X90.855 Y106.690 E15.34751
G1 X91.034 Y105.869 E15.44835
G1 X90.873 Y105.724 E15.47435
G1 X91.252 Y104.874 E15.58603
G1 X91.415 Y104.126 E15.67789
G1 X91.595 Y104.102 E15.69969
G1 X92.744 Y101.523 E16.03849
G1 X92.660 Y101.384 E16.05798
G1 X93.038 Y100.862 E16.13532
G1 X93.334 Y100.198 E16.22256
G1 X93.514 Y100.205 E16.24417
G1 X95.096 Y98.021 E16.56779
G1 X95.011 Y97.830 E16.59287
G1 X95.655 Y97.250 E16.69688
G1 X96.133 Y96.590 E16.79466
G1 X96.325 Y96.646 E16.81866
G0 F9000 X96.426 Y97.094
G1 F1200 X98.677 Y95.066 E17.18224
G1 X98.644 Y94.914 E17.20091
G1 X99.207 Y94.589 E17.27892
G1 X99.590 Y94.244 E17.34077
G1 X99.704 Y94.302 E17.35612
G1 X102.393 Y92.749 E17.72875
G1 X102.393 Y92.597 E17.74699
G1 X102.998 Y92.400 E17.82334
G1 X103.485 Y92.119 E17.89081
G1 X103.590 Y92.208 E17.90733
G1 X106.694 Y91.198 E18.29903
G1 X106.725 Y91.097 E18.31171
G1 X107.141 Y91.053 E18.36191
G1 X107.691 Y90.874 E18.43132
G1 X107.777 Y90.986 E18.44826
G1 X109.705 Y90.782 E18.68091
G1 X109.705 Y90.781 E18.68103
G1 X110.811 Y90.656 E18.81460
G1 X110.870 Y90.523 E18.83206
G1 X111.444 Y90.584 E18.90133
G1 X112.104 Y90.509 E18.98104
G1 X112.173 Y90.661 E19.00107
G1 X114.093 Y90.865 E19.23276
G1 X115.363 Y91.009 E19.38614
G1 X115.442 Y90.918 E19.40060
G1 X115.916 Y91.072 E19.46041
G1 X116.419 Y91.129 E19.52115
G1 X116.447 Y91.244 E19.53536
G1 X118.317 Y91.852 E19.77132
G1 X119.334 Y92.187 E19.89981
G1 X119.452 Y92.081 E19.91885
G1 X120.034 Y92.417 E19.99949
G1 X120.552 Y92.588 E20.06495
G1 X120.555 Y92.719 E20.08067
G1 X123.357 Y94.339 E20.46907
G1 X123.460 Y94.290 E20.48275
G1 X123.795 Y94.592 E20.53688
G1 X124.287 Y94.876 E20.60505
G1 X124.262 Y95.011 E20.62152
G1 X125.720 Y96.324 E20.85697
G1 X126.665 Y97.183 E21.01022
G1 X126.782 Y97.156 E21.02463
G1 X127.065 Y97.547 E21.08255
G1 X127.451 Y97.898 E21.14516
G1 X127.403 Y98.014 E21.16022
G1 X128.547 Y99.592 E21.39411
G1 X129.208 Y100.489 E21.52782
G1 X129.350 Y100.475 E21.54494
G1 X129.585 Y101.002 E21.61418
G1 X129.954 Y101.503 E21.68885
G1 X129.866 Y101.631 E21.70749
G1 X130.648 Y103.385 E21.93794
G1 X131.100 Y104.414 E22.07281
G1 X131.257 Y104.431 E22.09176
G1 X131.396 Y105.085 E22.17199
G1 X131.570 Y105.482 E22.22400
G1 X131.496 Y105.558 E22.23673
G1 X132.165 Y108.721 E22.62469
G1 X132.292 Y108.767 E22.64090
G1 X132.292 Y109.319 E22.70714
G1 X132.409 Y109.871 E22.77485
G1 X132.292 Y109.943 E22.79134
G1 X132.292 Y113.193 E23.18134
G1 X132.381 Y113.255 E23.19435
G1 X132.292 Y113.677 E23.24611
G1 X132.292 Y114.263 E23.31643
G1 X132.158 Y114.310 E23.33347
G1 X131.754 Y116.226 E23.56844
G1 X131.497 Y117.401 E23.71278
G1 X131.589 Y117.493 E23.72839
G1 X131.369 Y117.990 E23.79361
G1 X131.252 Y118.523 E23.85909
G1 X131.124 Y118.540 E23.87459
G1 X130.328 Y120.334 E24.11011
G1 X129.881 Y121.323 E24.24035
G1 X129.971 Y121.448 E24.25883
G1 X129.585 Y121.980 E24.33770
G1 X129.421 Y122.343 E24.38550
G1 X129.323 Y122.341 E24.39727
G1 X127.327 Y125.091 E24.80503
G1 X127.363 Y125.194 E24.81812
G1 X127.044 Y125.482 E24.86969
G1 X126.756 Y125.878 E24.92845
G1 X126.637 Y125.848 E24.94318
G1 X124.300 Y127.953 E25.32061
G1 X124.331 Y128.100 E25.33864
G1 X123.790 Y128.413 E25.41364
G1 X123.264 Y128.886 E25.49853
G1 X123.122 Y128.798 E25.51857
G1 X121.559 Y129.701 E25.73518
G1 X120.607 Y130.257 E25.86748
G1 X120.607 Y130.404 E25.88512
G1 X120.039 Y130.589 E25.95681
G1 X119.514 Y130.895 E26.02973
G1 X119.399 Y130.797 E26.04786
G1 X117.539 Y131.401 E26.28253
G1 X117.539 Y131.400 E26.28265
G1 X116.495 Y131.744 E26.41456
G1 X116.463 Y131.889 E26.43237
G1 X115.868 Y131.951 E26.50416
G1 X115.315 Y132.133 E26.57402
G1 X115.226 Y132.017 E26.59157
G1 X113.297 Y132.218 E26.82430
G1 X112.196 Y132.343 E26.95727
G1 X112.138 Y132.473 E26.97435
G1 X111.570 Y132.414 E27.04288
G1 X111.036 Y132.474 E27.10736
G1 X110.971 Y132.351 E27.12406
G1 X107.591 Y131.997 E27.53187
G1 X107.524 Y132.072 E27.54394
G1 X107.152 Y131.951 E27.59089
G1 X106.683 Y131.902 E27.64747
G1 X106.651 Y131.788 E27.66168
G1 X103.659 Y130.815 E28.03923
G1 X103.546 Y130.917 E28.05750
G1 X102.996 Y130.599 E28.13373
G1 X102.460 Y130.425 E28.20136
G1 X102.456 Y130.287 E28.21792
G1 X99.641 Y128.661 E28.60803
G1 X99.540 Y128.709 E28.62145
G1 X99.212 Y128.414 E28.67438
G1 X98.717 Y128.128 E28.74299
G1 X98.742 Y127.991 E28.75970
G1 X97.280 Y126.675 E28.99574
G1 X96.355 Y125.834 E29.14576
G1 X96.231 Y125.865 E29.16110
G1 X95.926 Y125.444 E29.22349
G1 X95.540 Y125.093 E29.28609
G1 X95.588 Y124.978 E29.30105
G1 X93.811 Y122.524 E29.66463
G1 X93.655 Y122.541 E29.68346
G1 X93.388 Y121.940 E29.76237
G1 X93.063 Y121.492 E29.82879
G1 X93.139 Y121.381 E29.84493
G1 X91.893 Y118.580 E30.21281
G1 X91.740 Y118.563 E30.23128
G1 X91.609 Y117.942 E30.30744
G1 X91.423 Y117.524 E30.36234
G1 X91.503 Y117.441 E30.37618
G1 X91.077 Y115.421 E30.62391
G1 X90.843 Y114.347 E30.75581
G1 X90.707 Y114.302 E30.77300
G1 X90.707 Y113.726 E30.84212
G1 X90.591 Y113.195 E30.90735
G1 X90.707 Y113.120 E30.92392
G1 X90.707 Y109.852 E31.31608
G1 X90.610 Y109.787 E31.33009
G1 X90.707 Y109.327 E31.38651
G1 X90.707 Y108.751 E31.45563
G1 X90.839 Y108.704 E31.47244
G1 X91.246 Y106.774 E31.70914
G1 X91.475 Y105.727 E31.83775
G1 X91.357 Y105.621 E31.85678
G1 X91.634 Y104.999 E31.93849
G1 X91.746 Y104.486 E32.00150
G1 X91.870 Y104.469 E32.01652
G1 X93.195 Y101.493 E32.40743
G1 X93.140 Y101.403 E32.42009
G1 X93.387 Y101.063 E32.47052
G1 X93.589 Y100.608 E32.53026
G1 X93.712 Y100.613 E32.54503
G1 X95.555 Y98.070 E32.92190
G1 X95.494 Y97.933 E32.93990
G1 X95.955 Y97.518 E33.01433
G1 X96.291 Y97.054 E33.08308
G1 X96.426 Y97.094 E33.09998
G10
G0 F9000 X100.449 Y98.947
;TYPE:WALL-INNER
G11
G1 F1200 X101.095 Y99.457 E33.19874
G1 X101.581 Y99.965 E33.28311
G1 X102.006 Y100.137 E33.33812
G1 X102.256 Y100.130 E33.36814
G1 X102.596 Y100.016 E33.41117
G1 X103.304 Y99.498 E33.51644
G1 X103.531 Y99.217 E33.55979
G1 X103.548 Y99.160 E33.56693
G1 X103.571 Y99.131 E33.57137
G1 X103.636 Y98.873 E33.60330
G1 X103.591 Y98.501 E33.64826
G1 X103.301 Y97.963 E33.72160
G1 X103.099 Y97.502 E33.78200
G1 X102.952 Y96.814 E33.86642
G1 X103.068 Y96.748 E33.88244
G1 X103.348 Y96.985 E33.92646
G1 X103.494 Y97.138 E33.95184
G1 X103.843 Y97.578 E34.01923
G1 X104.182 Y98.139 E34.09789
G1 X104.532 Y98.408 E34.15086
G1 X105.099 Y98.436 E34.21898
G1 X105.716 Y98.164 E34.29990
G1 X105.951 Y98.082 E34.32976
G1 X106.291 Y97.768 E34.38530
G1 X106.414 Y97.594 E34.41087
G1 X106.477 Y97.251 E34.45272
G1 X106.274 Y96.389 E34.55899
G1 X106.193 Y96.049 E34.60093
G1 X106.193 Y95.357 E34.68397
G1 X106.318 Y95.317 E34.69972
G1 X106.588 Y95.667 E34.75277
G1 X106.905 Y96.291 E34.83675
G1 X107.119 Y96.916 E34.91603
G1 X107.206 Y96.986 E34.92943
G1 X107.403 Y97.275 E34.97140
G1 X108.005 Y97.392 E35.04499
G1 X109.045 Y97.153 E35.17304
G1 X109.367 Y96.898 E35.22233
G1 X109.478 Y96.676 E35.25212
G1 X109.490 Y96.633 E35.25748
G1 X109.561 Y96.501 E35.27546
G1 X109.526 Y95.365 E35.41185
G1 X109.522 Y95.264 E35.42398
G1 X109.622 Y94.634 E35.50052
G1 X109.629 Y94.611 E35.50341
G1 X109.787 Y94.594 E35.52248
G1 X110.022 Y95.109 E35.59041
G1 X110.208 Y96.005 E35.70022
G1 X110.228 Y96.131 E35.71553
G1 X110.334 Y96.523 E35.76426
G1 X110.486 Y96.701 E35.79235
G1 X110.842 Y96.944 E35.84407
G1 X111.106 Y96.964 E35.87584
G1 X111.961 Y96.962 E35.97844
G1 X112.375 Y96.859 E36.02963
G1 X112.719 Y96.415 E36.09703
G1 X112.937 Y95.227 E36.24197
G1 X113.219 Y94.594 E36.32513
G1 X113.348 Y94.608 E36.34070
G1 X113.452 Y95.038 E36.39379
G1 X113.489 Y95.756 E36.48006
G1 X113.489 Y95.833 E36.48930
G1 X113.439 Y96.429 E36.56108
G1 X113.570 Y96.816 E36.61010
G1 X113.782 Y97.045 E36.64755
G1 X113.925 Y97.105 E36.66616
G1 X114.034 Y97.179 E36.68197
G1 X114.875 Y97.362 E36.78525
G1 X115.110 Y97.400 E36.81382
G1 X115.455 Y97.293 E36.85716
G1 X115.660 Y97.199 E36.88423
G1 X115.736 Y97.082 E36.90097
G1 X115.837 Y96.974 E36.91871
G1 X116.289 Y95.877 E37.06109
G1 X116.690 Y95.319 E37.14355
G1 X116.817 Y95.360 E37.15956
G1 X116.828 Y95.868 E37.22054
G1 X116.638 Y96.745 E37.32822
G1 X116.587 Y96.943 E37.35275
G1 X116.549 Y97.300 E37.39583
G1 X116.571 Y97.619 E37.43421
G1 X116.995 Y98.049 E37.50667
G1 X117.620 Y98.326 E37.58871
G1 X117.826 Y98.414 E37.61559
G1 X118.206 Y98.441 E37.66130
G1 X118.481 Y98.410 E37.69451
G1 X118.827 Y98.110 E37.74947
G1 X119.433 Y97.217 E37.87897
G1 X119.945 Y96.754 E37.96181
G1 X120.057 Y96.819 E37.97735
G1 X119.965 Y97.309 E38.03717
G1 X119.750 Y97.850 E38.10703
G1 X119.432 Y98.442 E38.18767
G1 X119.331 Y98.975 E38.25277
G1 X119.503 Y99.188 E38.28562
G1 X119.505 Y99.199 E38.28697
G1 X119.634 Y99.416 E38.31726
G1 X119.750 Y99.540 E38.33764
G1 X120.416 Y100.008 E38.43531
G1 X120.577 Y100.095 E38.45727
G1 X120.855 Y100.146 E38.49119
G1 X121.285 Y100.060 E38.54381
G1 X122.188 Y99.214 E38.69230
G1 X122.228 Y99.177 E38.69884
G1 X122.803 Y98.811 E38.78063
G1 X122.924 Y98.919 E38.80009
G1 X122.737 Y99.371 E38.85879
G1 X122.375 Y99.917 E38.93740
G1 X121.918 Y100.452 E39.02184
G1 X121.789 Y100.901 E39.07790
G1 X121.978 Y101.430 E39.14531
G1 X122.456 Y101.962 E39.23113
G1 X122.592 Y102.111 E39.25534
G1 X123.058 Y102.377 E39.31973
G1 X123.613 Y102.271 E39.38753
G1 X124.136 Y101.911 E39.46372
G1 X124.681 Y101.616 E39.53809
G1 X124.759 Y101.582 E39.54830
G1 X125.201 Y101.451 E39.60362
G1 X125.288 Y101.570 E39.62131
G1 X125.002 Y101.983 E39.68159
G1 X124.544 Y102.431 E39.75847
G1 X124.047 Y102.806 E39.83319
G1 X123.725 Y103.424 E39.91681
G1 X123.804 Y103.652 E39.94577
G1 X123.808 Y103.692 E39.95059
G1 X123.900 Y103.928 E39.98098
G1 X124.285 Y104.581 E40.07195
G1 X124.628 Y104.933 E40.13093
G1 X125.121 Y105.027 E40.19115
G1 X125.778 Y104.792 E40.27489
G1 X126.333 Y104.600 E40.34536
G1 X126.999 Y104.533 E40.42568
G1 X127.060 Y104.670 E40.44368
G1 X126.929 Y104.797 E40.46557
G1 X126.411 Y105.178 E40.54274
G1 X125.654 Y105.570 E40.64503
G1 X125.386 Y105.774 E40.68545
G1 X125.278 Y105.962 E40.71147
G1 X125.239 Y106.059 E40.72401
G1 X125.154 Y106.199 E40.74367
G1 X125.174 Y106.580 E40.78945
G1 X125.413 Y107.294 E40.87980
G1 X125.487 Y107.540 E40.91063
G1 X125.958 Y107.974 E40.98748
G1 X126.311 Y107.970 E41.02985
G1 X126.361 Y107.976 E41.03589
G1 X127.423 Y107.834 E41.16446
G1 X127.434 Y107.833 E41.16579
G1 X128.109 Y107.908 E41.24729
G1 X128.136 Y108.038 E41.26322
G1 X127.761 Y108.268 E41.31601
G1 X127.040 Y108.533 E41.40819
G1 X126.430 Y108.690 E41.48378
G1 X126.153 Y108.885 E41.52443
G1 X126.027 Y109.085 E41.55279
G1 X125.895 Y109.473 E41.60197
G1 X125.980 Y110.335 E41.70591
G1 X126.053 Y110.616 E41.74075
G1 X126.215 Y110.884 E41.77833
G1 X126.666 Y111.150 E41.84116
G1 X127.451 Y111.179 E41.93543
G1 X127.543 Y111.186 E41.94650
G1 X128.118 Y111.290 E42.01662
G1 X128.492 Y111.426 E42.06438
G1 X128.492 Y111.571 E42.08178
G1 X128.023 Y111.736 E42.14144
G1 X127.435 Y111.822 E42.21275
G1 X126.650 Y111.860 E42.30706
G1 X126.219 Y112.068 E42.36449
G1 X126.165 Y112.240 E42.38612
G1 X126.106 Y112.322 E42.39824
G1 X126.025 Y112.482 E42.41976
G1 X125.915 Y113.316 E42.52071
G1 X125.907 Y113.517 E42.54485
G1 X125.980 Y113.890 E42.59046
G1 X126.319 Y114.267 E42.65130
G1 X127.548 Y114.633 E42.80518
G1 X128.121 Y114.925 E42.88235
G1 X128.142 Y114.939 E42.88538
G1 X128.108 Y115.101 E42.90524
G1 X127.609 Y115.166 E42.96563
G1 X126.997 Y115.127 E43.03922
G1 X126.979 Y115.126 E43.04138
G1 X126.418 Y115.016 E43.10998
G1 X125.951 Y115.058 E43.16625
G1 X125.590 Y115.318 E43.21964
G1 X125.434 Y115.622 E43.26064
G1 X125.213 Y116.308 E43.34712
