;FLAVOR:UltiGCode
;TIME:975
;MATERIAL:2440
;MATERIAL2:0
;NOZZLE_DIAMETER:0.000000
;NOZZLE_DIAMETER2:0.000000

;Layer count: 42
;LAYER:0
M107
G0 F9000 X104.249 Y51.750 Z0.300
;TYPE:SKIRT
G1 F1800 X118.746 Y51.750 E2.17455
G1 X118.750 Y63.246 E3.89895
G1 X118.750 Y171.250 E20.09955
G1 X104.249 Y171.250 E22.27470
G1 X104.249 Y51.750 E40.19970
G10
G0 F9000 X108.249 Y55.750
;TYPE:WALL-INNER
G11
G1 F1800 X114.747 Y55.750 E41.17440
G1 X114.750 Y167.250 E57.89940
G1 X108.249 Y167.250 E58.87455
G1 X108.249 Y55.750 E75.59955
G0 F9000 X107.749 Y55.250
;TYPE:WALL-OUTER
G1 F1800 X115.247 Y55.250 E76.72425
G1 X115.250 Y167.750 E93.59925
G1 X107.749 Y167.750 E94.72440
G1 X107.749 Y55.250 E111.59940
G0 F9000 X108.604 Y55.925
;TYPE:SKIN
G1 F1800 X114.571 Y61.892 E112.86519
G0 F9000 X114.571 Y62.599
G1 F1800 X108.423 Y56.451 E114.16938
G0 F9000 X108.423 Y57.158
G1 F1800 X114.571 Y63.306 E115.47357
G0 F9000 X114.571 Y64.013
G1 F1800 X108.423 Y57.865 E116.77776
G0 F9000 X108.423 Y58.572
G1 F1800 X114.571 Y64.720 E118.08194
G0 F9000 X114.571 Y65.427
G1 F1800 X108.423 Y59.279 E119.38613
G0 F9000 X108.423 Y59.986
G1 F1800 X114.571 Y66.134 E120.69032
G0 F9000 X114.571 Y66.842
G1 F1800 X108.423 Y60.693 E121.99461
G0 F9000 X108.423 Y61.400
G1 F1800 X114.571 Y67.549 E123.29891
G0 F9000 X114.571 Y68.256
G1 F1800 X108.423 Y62.108 E124.60309
G0 F9000 X108.423 Y62.815
G1 F1800 X114.571 Y68.963 E125.90728
G0 F9000 X114.571 Y69.670
G1 F1800 X108.423 Y63.522 E127.21147
G0 F9000 X108.423 Y64.229
G1 F1800 X114.571 Y70.377 E128.51566
G0 F9000 X114.571 Y71.084
G1 F1800 X108.423 Y64.936 E129.81984
G0 F9000 X108.423 Y65.643
G1 F1800 X114.571 Y71.791 E131.12403
G0 F9000 X114.571 Y72.498
G1 F1800 X108.423 Y66.350 E132.42822
G0 F9000 X108.423 Y67.057
G1 F1800 X114.571 Y73.206 E133.73251
G0 F9000 X114.571 Y73.913
G1 F1800 X108.423 Y67.764 E135.03681
G0 F9000 X108.423 Y68.471
G1 F1800 X114.571 Y74.620 E136.34110
G0 F9000 X114.571 Y75.327
G1 F1800 X108.423 Y69.179 E137.64529
G0 F9000 X108.423 Y69.886
G1 F1800 X114.571 Y76.034 E138.94948
G0 F9000 X114.571 Y76.741
G1 F1800 X108.423 Y70.593 E140.25367
G0 F9000 X108.423 Y71.300
G1 F1800 X114.571 Y77.448 E141.55785
G0 F9000 X114.572 Y78.156
G1 F1800 X108.423 Y72.007 E142.86225
G0 F9000 X108.423 Y72.714
G1 F1800 X114.572 Y78.863 E144.16665
G0 F9000 X114.572 Y79.570
G1 F1800 X108.423 Y73.421 E145.47105
G0 F9000 X108.423 Y74.128
G1 F1800 X114.572 Y80.277 E146.77545
G0 F9000 X114.572 Y80.984
G1 F1800 X108.423 Y74.835 E148.07985
G0 F9000 X108.423 Y75.543
G1 F1800 X114.572 Y81.692 E149.38425
G0 F9000 X114.572 Y82.399
G1 F1800 X108.423 Y76.250 E150.68865
G0 F9000 X108.423 Y76.957
G1 F1800 X114.572 Y83.106 E151.99305
G0 F9000 X114.572 Y83.813
G1 F1800 X108.423 Y77.664 E153.29745
G0 F9000 X108.423 Y78.371
G1 F1800 X114.572 Y84.520 E154.60185
G0 F9000 X114.572 Y85.227
G1 F1800 X108.423 Y79.078 E155.90625
G0 F9000 X108.423 Y79.785
G1 F1800 X114.572 Y85.934 E157.21065
G0 F9000 X114.572 Y86.641
G1 F1800 X108.423 Y80.492 E158.51505
G0 F9000 X108.423 Y81.199
G1 F1800 X114.572 Y87.348 E159.81945
G0 F9000 X114.572 Y88.056
G1 F1800 X108.423 Y81.907 E161.12385
G0 F9000 X108.423 Y82.614
G1 F1800 X114.572 Y88.763 E162.42825
G0 F9000 X114.572 Y89.470
G1 F1800 X108.423 Y83.321 E163.73265
G0 F9000 X108.423 Y84.028
G1 F1800 X114.572 Y90.177 E165.03705
G0 F9000 X114.572 Y90.884
G1 F1800 X108.423 Y84.735 E166.34145
G0 F9000 X108.423 Y85.442
G1 F1800 X114.572 Y91.591 E167.64585
G0 F9000 X114.572 Y92.298
G1 F1800 X108.423 Y86.149 E168.95025
G0 F9000 X108.423 Y86.856
G1 F1800 X114.572 Y93.005 E170.25465
G0 F9000 X114.572 Y93.712
G1 F1800 X108.423 Y87.563 E171.55905
G0 F9000 X108.423 Y88.270
G1 F1800 X114.572 Y94.419 E172.86345
G0 F9000 X114.572 Y95.127
G1 F1800 X108.423 Y88.978 E174.16785
G0 F9000 X108.423 Y89.685
G1 F1800 X114.572 Y95.834 E175.47225
G0 F9000 X114.572 Y96.541
G1 F1800 X108.423 Y90.392 E176.77665
G0 F9000 X108.423 Y91.099
G1 F1800 X114.572 Y97.248 E178.08105
G0 F9000 X114.572 Y97.955
G1 F1800 X108.423 Y91.806 E179.38545
G0 F9000 X108.423 Y92.513
G1 F1800 X114.572 Y98.662 E180.68985
G0 F9000 X114.572 Y99.369
G1 F1800 X108.423 Y93.220 E181.99425
G0 F9000 X108.423 Y93.927
G1 F1800 X114.572 Y100.076 E183.29865
G0 F9000 X114.573 Y100.784
G1 F1800 X108.423 Y94.634 E184.60326
G0 F9000 X108.423 Y95.342
G1 F1800 X114.573 Y101.491 E185.90777
G0 F9000 X114.573 Y102.198
G1 F1800 X108.423 Y96.049 E187.21227
G0 F9000 X108.423 Y96.756
G1 F1800 X114.573 Y102.905 E188.51678
G0 F9000 X114.573 Y103.613
G1 F1800 X108.423 Y97.463 E189.82139
G0 F9000 X108.423 Y98.170
G1 F1800 X114.573 Y104.320 E191.12600
G0 F9000 X114.573 Y105.027
G1 F1800 X108.423 Y98.877 E192.43061
G0 F9000 X108.423 Y99.584
G1 F1800 X114.573 Y105.734 E193.73523
G0 F9000 X114.573 Y106.441
G1 F1800 X108.423 Y100.291 E195.03984
G0 F9000 X108.423 Y100.998
G1 F1800 X114.573 Y107.148 E196.34445
G0 F9000 X114.573 Y107.855
G1 F1800 X108.423 Y101.705 E197.64906
G0 F9000 X108.423 Y102.413
G1 F1800 X114.573 Y108.562 E198.95357
G0 F9000 X114.573 Y109.269
G1 F1800 X108.423 Y103.120 E200.25807
G0 F9000 X108.423 Y103.827
G1 F1800 X114.573 Y109.977 E201.56269
G0 F9000 X114.573 Y110.684
G1 F1800 X108.423 Y104.534 E202.86730
G0 F9000 X108.423 Y105.241
G1 F1800 X114.573 Y111.391 E204.17191
G0 F9000 X114.573 Y112.098
G1 F1800 X108.423 Y105.948 E205.47652
G0 F9000 X108.423 Y106.655
G1 F1800 X114.573 Y112.805 E206.78113
G0 F9000 X114.573 Y113.512
G1 F1800 X108.423 Y107.362 E208.08575
G0 F9000 X108.423 Y108.069
G1 F1800 X114.573 Y114.219 E209.39036
G0 F9000 X114.573 Y114.926
G1 F1800 X108.423 Y108.777 E210.69486
G0 F9000 X108.423 Y109.484
G1 F1800 X114.573 Y115.633 E211.99937
G0 F9000 X114.573 Y116.340
G1 F1800 X108.423 Y110.191 E213.30388
G0 F9000 X108.423 Y110.898
G1 F1800 X114.573 Y117.048 E214.60849
G0 F9000 X114.573 Y117.755
G1 F1800 X108.423 Y111.605 E215.91310
G0 F9000 X108.423 Y112.312
G1 F1800 X114.573 Y118.462 E217.21771
G0 F9000 X114.573 Y119.169
G1 F1800 X108.423 Y113.019 E218.52232
G0 F9000 X108.423 Y113.726
G1 F1800 X114.573 Y119.876 E219.82694
G0 F9000 X114.573 Y120.583
G1 F1800 X108.423 Y114.433 E221.13155
G0 F9000 X108.423 Y115.141
G1 F1800 X114.573 Y121.290 E222.43605
G0 F9000 X114.573 Y121.997
G1 F1800 X108.423 Y115.848 E223.74056
G0 F9000 X108.423 Y116.555
G1 F1800 X114.573 Y122.705 E225.04517
G0 F9000 X114.573 Y123.412
G1 F1800 X108.423 Y117.262 E226.34978
G0 F9000 X108.423 Y117.969
G1 F1800 X114.573 Y124.119 E227.65440
G0 F9000 X114.573 Y124.826
G1 F1800 X108.423 Y118.676 E228.95901
G0 F9000 X108.423 Y119.383
G1 F1800 X114.573 Y125.534 E230.26373
G0 F9000 X114.573 Y126.241
G1 F1800 X108.423 Y120.090 E231.56844
G0 F9000 X108.423 Y120.797
G1 F1800 X114.573 Y126.948 E232.87316
G0 F9000 X114.573 Y127.655
G1 F1800 X108.423 Y121.504 E234.17788
G0 F9000 X108.423 Y122.212
G1 F1800 X114.573 Y128.362 E235.48249
G0 F9000 X114.573 Y129.069
G1 F1800 X108.423 Y122.919 E236.78711
G0 F9000 X108.423 Y123.626
G1 F1800 X114.573 Y129.776 E238.09172
G0 F9000 X114.573 Y130.483
G1 F1800 X108.423 Y124.333 E239.39633
G0 F9000 X108.423 Y125.040
G1 F1800 X114.573 Y131.190 E240.70094
G0 F9000 X114.573 Y131.898
G1 F1800 X108.423 Y125.747 E242.00566
G0 F9000 X108.423 Y126.454
G1 F1800 X114.573 Y132.605 E243.31038
G0 F9000 X114.573 Y133.312
G1 F1800 X108.423 Y127.161 E244.61510
G0 F9000 X108.423 Y127.868
G1 F1800 X114.573 Y134.019 E245.91981
G0 F9000 X114.573 Y134.726
G1 F1800 X108.423 Y128.576 E247.22443
G0 F9000 X108.423 Y129.283
G1 F1800 X114.573 Y135.433 E248.52904
G0 F9000 X114.573 Y136.140
G1 F1800 X108.423 Y129.990 E249.83365
G0 F9000 X108.423 Y130.697
G1 F1800 X114.573 Y136.847 E251.13826
G0 F9000 X114.573 Y137.554
G1 F1800 X108.423 Y131.404 E252.44287
G0 F9000 X108.423 Y132.111
G1 F1800 X114.573 Y138.262 E253.74759
G0 F9000 X114.573 Y138.969
G1 F1800 X108.423 Y132.818 E255.05231
G0 F9000 X108.423 Y133.525
G1 F1800 X114.573 Y139.676 E256.35703
G0 F9000 X114.573 Y140.383
G1 F1800 X108.423 Y134.232 E257.66175
G0 F9000 X108.423 Y134.940
G1 F1800 X114.573 Y141.090 E258.96636
G0 F9000 X114.573 Y141.797
G1 F1800 X108.423 Y135.647 E260.27097
G0 F9000 X108.423 Y136.354
G1 F1800 X114.573 Y142.504 E261.57558
G0 F9000 X114.573 Y143.211
G1 F1800 X108.423 Y137.061 E262.88019
G0 F9000 X108.423 Y137.768
G1 F1800 X114.573 Y143.918 E264.18481
G0 F9000 X114.573 Y144.625
G1 F1800 X108.423 Y138.475 E265.48942
G0 F9000 X108.423 Y139.182
G1 F1800 X114.574 Y145.333 E266.79424
G0 F9000 X114.574 Y146.040
G1 F1800 X108.423 Y139.889 E268.09907
G0 F9000 X108.423 Y140.596
G1 F1800 X114.574 Y146.747 E269.40389
G0 F9000 X114.574 Y147.455
G1 F1800 X108.423 Y141.303 E270.70882
G0 F9000 X108.423 Y142.011
G1 F1800 X114.574 Y148.162 E272.01364
G0 F9000 X114.574 Y148.869
G1 F1800 X108.423 Y142.718 E273.31847
G0 F9000 X108.423 Y143.425
G1 F1800 X114.574 Y149.576 E274.62329
G0 F9000 X114.574 Y150.283
G1 F1800 X108.423 Y144.132 E275.92812
G0 F9000 X108.423 Y144.839
G1 F1800 X114.574 Y150.990 E277.23294
G0 F9000 X114.574 Y151.697
G1 F1800 X108.423 Y145.546 E278.53777
G0 F9000 X108.423 Y146.253
G1 F1800 X114.574 Y152.404 E279.84259
G0 F9000 X114.574 Y153.111
G1 F1800 X108.423 Y146.960 E281.14741
G0 F9000 X108.423 Y147.667
G1 F1800 X114.574 Y153.819 E282.45234
G0 F9000 X114.574 Y154.526
G1 F1800 X108.423 Y148.375 E283.75717
G0 F9000 X108.423 Y149.082
G1 F1800 X114.574 Y155.233 E285.06199
G0 F9000 X114.574 Y155.940
G1 F1800 X108.423 Y149.789 E286.36682
G0 F9000 X108.423 Y150.496
G1 F1800 X114.574 Y156.647 E287.67164
G0 F9000 X114.574 Y157.354
G1 F1800 X108.423 Y151.203 E288.97646
G0 F9000 X108.423 Y151.910
G1 F1800 X114.574 Y158.061 E290.28129
G0 F9000 X114.574 Y158.768
G1 F1800 X108.423 Y152.617 E291.58611
G0 F9000 X108.423 Y153.324
G1 F1800 X114.574 Y159.475 E292.89094
G0 F9000 X114.574 Y160.183
G1 F1800 X108.423 Y154.031 E294.19587
G0 F9000 X108.423 Y154.739
G1 F1800 X114.574 Y160.890 E295.50069
G0 F9000 X114.574 Y161.597
G1 F1800 X108.423 Y155.446 E296.80552
G0 F9000 X108.423 Y156.153
G1 F1800 X114.574 Y162.304 E298.11034
G0 F9000 X114.574 Y163.011
G1 F1800 X108.423 Y156.860 E299.41516
G0 F9000 X108.423 Y157.567
G1 F1800 X114.574 Y163.718 E300.71999
G0 F9000 X114.574 Y164.425
G1 F1800 X108.423 Y158.274 E302.02481
G0 F9000 X108.423 Y158.981
G1 F1800 X114.574 Y165.132 E303.32964
G0 F9000 X114.574 Y165.839
G1 F1800 X108.423 Y159.688 E304.63446
G0 F9000 X108.423 Y160.395
G1 F1800 X114.574 Y166.546 E305.93928
G0 F9000 X114.395 Y167.074
G1 F1800 X108.423 Y161.102 E307.20614
G0 F9000 X108.423 Y161.810
G1 F1800 X113.687 Y167.074 E308.32280
G0 F9000 X112.980 Y167.074
G1 F1800 X108.423 Y162.517 E309.28949
G0 F9000 X108.423 Y163.224
G1 F1800 X112.273 Y167.074 E310.10619
G0 F9000 X111.566 Y167.074
G1 F1800 X108.423 Y163.931 E310.77293
G0 F9000 X108.423 Y164.638
G1 F1800 X110.859 Y167.074 E311.28968
G0 F9000 X110.152 Y167.074
G1 F1800 X108.423 Y165.345 E311.65645
G0 F9000 X108.423 Y166.052
G1 F1800 X109.445 Y167.074 E311.87325
G0 F9000 X108.738 Y167.074
G1 F1800 X108.423 Y166.759 E311.94008
G0 F9000 X114.571 Y61.185
G1 F1800 X109.311 Y55.925 E313.05589
G0 F9000 X110.018 Y55.925
G1 F1800 X114.571 Y60.478 E314.02173
G0 F9000 X114.571 Y59.771
G1 F1800 X110.725 Y55.925 E314.83759
G0 F9000 X111.432 Y55.925
G1 F1800 X114.571 Y59.063 E315.50336
G0 F9000 X114.571 Y58.356
G1 F1800 X112.140 Y55.925 E316.01906
G0 F9000 X112.847 Y55.925
G1 F1800 X114.571 Y57.649 E316.38477
G0 F9000 X114.571 Y56.942
G1 F1800 X113.554 Y55.925 E316.60051
G0 F9000 X114.261 Y55.925
G1 F1800 X114.571 Y56.235 E316.66627
;LAYER:1
M106 S127
G0 F9000 X114.750 Y55.750 Z0.450
;TYPE:WALL-INNER
G1 F2520 X114.750 Y167.250 E325.02877
G1 X108.249 Y167.250 E325.51635
G1 X108.249 Y55.750 E333.87885
G1 X114.750 Y55.750 E334.36642
G0 F9000 X115.250 Y55.250
;TYPE:WALL-OUTER
G1 F1920 X115.250 Y167.750 E342.80392
G1 X107.749 Y167.750 E343.36650
G1 X107.749 Y55.250 E351.80400
G1 X115.250 Y55.250 E352.36657
G0 F9000 X114.573 Y56.192
;TYPE:SKIN
G1 F1740 X108.424 Y62.342 E353.01882
G0 F9000 X108.424 Y63.049
G1 F1740 X114.573 Y56.899 E353.67108
G0 F9000 X114.573 Y57.606
G1 F1740 X108.424 Y63.756 E354.32333
G0 F9000 X108.424 Y64.463
G1 F1740 X114.573 Y58.313 E354.97558
G0 F9000 X114.573 Y59.020
G1 F1740 X108.424 Y65.170 E355.62784
G0 F9000 X108.424 Y65.877
G1 F1740 X114.573 Y59.727 E356.28009
G0 F9000 X114.134 Y55.925
G1 F1740 X108.424 Y61.634 E356.88567
G0 F9000 X108.424 Y60.927
G1 F1740 X113.426 Y55.925 E357.41622
G0 F9000 X112.719 Y55.925
G1 F1740 X108.424 Y60.220 E357.87177
G0 F9000 X114.573 Y60.435
G1 F1740 X108.424 Y66.584 E358.52397
G0 F9000 X108.424 Y67.291
G1 F1740 X114.573 Y61.142 E359.17617
G0 F9000 X114.573 Y61.849
G1 F1740 X108.424 Y67.998 E359.82837
G0 F9000 X108.424 Y68.706
G1 F1740 X114.573 Y62.556 E360.48062
G0 F9000 X114.573 Y63.263
G1 F1740 X108.424 Y69.413 E361.13287
G0 F9000 X108.424 Y70.120
G1 F1740 X114.573 Y63.970 E361.78513
G0 F9000 X114.573 Y64.677
G1 F1740 X108.424 Y70.827 E362.43738
G0 F9000 X108.424 Y71.534
G1 F1740 X114.573 Y65.384 E363.08963
G0 F9000 X114.573 Y66.091
G1 F1740 X108.424 Y72.241 E363.74189
G0 F9000 X108.424 Y72.948
G1 F1740 X114.573 Y66.798 E364.39414
G0 F9000 X114.573 Y67.506
G1 F1740 X108.424 Y73.655 E365.04634
G0 F9000 X108.424 Y74.362
G1 F1740 X114.573 Y68.213 E365.69854
G0 F9000 X114.573 Y68.920
G1 F1740 X108.424 Y75.069 E366.35074
G0 F9000 X108.424 Y75.777
G1 F1740 X114.573 Y69.627 E367.00299
G0 F9000 X114.573 Y70.334
G1 F1740 X108.424 Y76.484 E367.65525
G0 F9000 X108.424 Y77.191
G1 F1740 X114.573 Y71.041 E368.30750
G0 F9000 X114.573 Y71.748
G1 F1740 X108.424 Y77.898 E368.95975
G0 F9000 X108.424 Y78.605
G1 F1740 X114.573 Y72.455 E369.61200
G0 F9000 X114.573 Y73.162
G1 F1740 X108.424 Y79.312 E370.26426
G0 F9000 X108.424 Y80.019
G1 F1740 X114.573 Y73.870 E370.91646
G0 F9000 X114.573 Y74.577
G1 F1740 X108.424 Y80.726 E371.56866
G0 F9000 X108.424 Y81.433
G1 F1740 X114.573 Y75.284 E372.22086
G0 F9000 X114.573 Y75.991
G1 F1740 X108.424 Y82.141 E372.87311
G0 F9000 X108.424 Y82.848
G1 F1740 X114.573 Y76.698 E373.52536
G0 F9000 X114.573 Y77.405
G1 F1740 X108.424 Y83.555 E374.17762
G0 F9000 X108.424 Y84.262
G1 F1740 X114.573 Y78.112 E374.82987
G0 F9000 X114.573 Y78.819
G1 F1740 X108.424 Y84.969 E375.48212
G0 F9000 X108.424 Y85.676
G1 F1740 X114.573 Y79.526 E376.13437
G0 F9000 X114.573 Y80.233
G1 F1740 X108.424 Y86.383 E376.78663
G0 F9000 X108.424 Y87.090
G1 F1740 X114.573 Y80.941 E377.43883
G0 F9000 X114.573 Y81.648
G1 F1740 X108.424 Y87.797 E378.09103
G0 F9000 X108.424 Y88.505
G1 F1740 X114.573 Y82.355 E378.74328
G0 F9000 X114.573 Y83.062
G1 F1740 X108.424 Y89.212 E379.39553
G0 F9000 X108.424 Y89.919
G1 F1740 X114.573 Y83.769 E380.04779
G0 F9000 X114.573 Y84.476
G1 F1740 X108.424 Y90.626 E380.70004
G0 F9000 X108.424 Y91.333
G1 F1740 X114.573 Y85.183 E381.35229
G0 F9000 X114.573 Y85.890
G1 F1740 X108.424 Y92.040 E382.00455
G0 F9000 X108.424 Y92.747
G1 F1740 X114.573 Y86.597 E382.65680
G0 F9000 X114.573 Y87.305
G1 F1740 X108.424 Y93.454 E383.30900
G0 F9000 X108.424 Y94.161
G1 F1740 X114.573 Y88.012 E383.96120
G0 F9000 X114.573 Y88.719
G1 F1740 X108.424 Y94.868 E384.61340
G0 F9000 X108.424 Y95.576
G1 F1740 X114.573 Y89.426 E385.26565
G0 F9000 X114.573 Y90.133
G1 F1740 X108.424 Y96.283 E385.91790
G0 F9000 X108.424 Y96.990
G1 F1740 X114.573 Y90.840 E386.57016
G0 F9000 X114.573 Y91.547
G1 F1740 X108.424 Y97.697 E387.22241
G0 F9000 X108.424 Y98.404
G1 F1740 X114.573 Y92.254 E387.87466
G0 F9000 X114.573 Y92.961
G1 F1740 X108.424 Y99.111 E388.52692
G0 F9000 X108.424 Y99.818
G1 F1740 X114.573 Y93.669 E389.17912
G0 F9000 X114.573 Y94.376
G1 F1740 X108.424 Y100.525 E389.83132
G0 F9000 X108.424 Y101.232
G1 F1740 X114.573 Y95.083 E390.48352
G0 F9000 X114.573 Y95.790
G1 F1740 X108.424 Y101.940 E391.13577
G0 F9000 X108.424 Y102.647
G1 F1740 X114.573 Y96.497 E391.78802
G0 F9000 X114.573 Y97.204
G1 F1740 X108.424 Y103.354 E392.44027
G0 F9000 X108.424 Y104.061
G1 F1740 X114.573 Y97.911 E393.09253
G0 F9000 X114.573 Y98.618
G1 F1740 X108.424 Y104.768 E393.74478
G0 F9000 X108.424 Y105.475
G1 F1740 X114.573 Y99.325 E394.39703
G0 F9000 X114.573 Y100.032
G1 F1740 X108.424 Y106.182 E395.04929
G0 F9000 X108.424 Y106.889
G1 F1740 X114.573 Y100.740 E395.70149
