;FLAVOR:UltiGCode
;TIME:8746
;MATERIAL:25556
;MATERIAL2:0
;NOZZLE_DIAMETER:0.400000
;NOZZLE_DIAMETER2:0.400000

;Layer count: 359
;LAYER:0
M107
G0 F9000 X79.328 Y88.310 Z0.300
G0 X79.021 Y88.677
;TYPE:SKIRT
G1 F1800 X79.328 Y88.310 E0.07177
G1 X80.283 Y87.522 E0.25749
G1 X80.660 Y87.220 E0.32995
G1 X81.745 Y86.639 E0.51456
G1 X82.170 Y86.417 E0.58649
G1 X83.349 Y86.057 E0.77140
G1 X83.811 Y85.922 E0.84359
G1 X85.137 Y85.789 E1.04349
G1 X137.722 Y85.775 E8.93124
G1 X138.758 Y85.878 E9.08741
G1 X139.216 Y85.926 E9.15649
G1 X140.402 Y86.284 E9.34231
G1 X140.860 Y86.427 E9.41428
G1 X141.947 Y87.006 E9.59902
G1 X142.369 Y87.237 E9.67119
G1 X143.326 Y88.019 E9.85657
G1 X143.694 Y88.327 E9.92855
G1 X144.481 Y89.282 E10.11417
G1 X144.781 Y89.657 E10.18621
G1 X145.364 Y90.742 E10.37096
G1 X145.585 Y91.167 E10.44282
G1 X145.946 Y92.346 E10.62777
G1 X146.081 Y92.809 E10.70011
G1 X146.209 Y94.091 E10.89337
G1 X146.222 Y124.738 E15.49042
G1 X146.222 Y128.767 E16.09477
G1 X146.125 Y129.764 E16.24503
G1 X146.075 Y130.220 E16.31384
G1 X145.719 Y131.399 E16.49857
G1 X145.575 Y131.857 E16.57059
G1 X144.995 Y132.946 E16.75566
G1 X144.765 Y133.367 E16.82762
G1 X143.984 Y134.323 E17.01279
G1 X143.676 Y134.691 E17.08477
G1 X142.720 Y135.479 E17.27061
G1 X142.344 Y135.779 E17.34276
G1 X141.260 Y136.361 E17.52732
G1 X140.835 Y136.583 E17.59924
G1 X139.656 Y136.943 E17.78415
G1 X139.194 Y137.078 E17.85635
G1 X137.868 Y137.211 E18.05625
G1 X85.283 Y137.225 E25.94400
G1 X84.247 Y137.122 E26.10016
G1 X83.789 Y137.074 E26.16924
G1 X82.603 Y136.716 E26.35507
G1 X82.146 Y136.573 E26.42689
G1 X81.057 Y135.994 E26.61190
G1 X80.634 Y135.763 E26.68419
G1 X79.678 Y134.980 E26.86955
G1 X79.311 Y134.673 E26.94132
G1 X78.524 Y133.718 E27.12695
G1 X78.224 Y133.343 E27.19898
G1 X77.641 Y132.258 E27.38374
G1 X77.420 Y131.833 E27.45559
G1 X77.059 Y130.654 E27.64055
G1 X76.924 Y130.191 E27.71289
G1 X76.792 Y128.865 E27.91277
G1 X76.778 Y98.300 E32.49752
G1 X76.778 Y94.281 E33.10037
G1 X76.880 Y93.246 E33.25637
G1 X76.928 Y92.786 E33.32575
G1 X77.286 Y91.601 E33.51143
G1 X77.430 Y91.143 E33.58345
G1 X78.010 Y90.054 E33.76852
G1 X78.240 Y89.633 E33.84048
G1 X79.021 Y88.677 E34.02565
G10
G0 F9000 X82.100 Y91.231
;TYPE:WALL-INNER
G11
G1 F1800 X82.162 Y91.157 E34.04013
G1 X82.801 Y90.629 E34.16447
G1 X82.876 Y90.570 E34.17878
G1 X83.611 Y90.177 E34.30380
G1 X83.693 Y90.134 E34.31769
G1 X84.490 Y89.891 E34.44268
G1 X84.579 Y89.865 E34.45658
G1 X85.335 Y89.789 E34.57056
G1 X137.528 Y89.775 E42.39951
G1 X138.350 Y89.857 E42.52342
G1 X138.422 Y89.865 E42.53428
G1 X139.221 Y90.106 E42.65947
G1 X139.312 Y90.134 E42.67375
G1 X140.053 Y90.529 E42.79971
G1 X140.121 Y90.566 E42.81132
G1 X140.772 Y91.098 E42.93743
G1 X140.843 Y91.157 E42.95127
G1 X141.372 Y91.800 E43.07617
G1 X141.430 Y91.873 E43.09016
G1 X141.826 Y92.609 E43.21552
G1 X141.869 Y92.691 E43.22941
G1 X142.112 Y93.487 E43.35425
G1 X142.138 Y93.576 E43.36816
G1 X142.209 Y94.287 E43.47534
G1 X142.222 Y128.577 E48.61884
G1 X142.147 Y129.350 E48.73533
G1 X142.138 Y129.420 E48.74592
G1 X141.897 Y130.218 E48.87096
G1 X141.869 Y130.306 E48.88481
G1 X141.473 Y131.050 E49.01123
G1 X141.436 Y131.119 E49.02298
G1 X140.905 Y131.769 E49.14888
G1 X140.846 Y131.840 E49.16272
G1 X140.202 Y132.370 E49.28783
G1 X140.129 Y132.428 E49.30182
G1 X139.386 Y132.827 E49.42832
G1 X139.312 Y132.866 E49.44087
G1 X138.515 Y133.109 E49.56585
G1 X138.426 Y133.135 E49.57976
G1 X137.670 Y133.211 E49.69373
G1 X85.477 Y133.225 E57.52268
G1 X84.655 Y133.143 E57.64659
G1 X84.583 Y133.135 E57.65746
G1 X83.784 Y132.894 E57.78264
G1 X83.693 Y132.865 E57.79697
G1 X82.951 Y132.471 E57.92299
G1 X82.879 Y132.432 E57.93527
G1 X82.233 Y131.902 E58.06061
G1 X82.162 Y131.843 E58.07446
G1 X81.633 Y131.200 E58.19935
G1 X81.575 Y131.127 E58.21334
G1 X81.175 Y130.383 E58.34004
G1 X81.136 Y130.309 E58.35259
G1 X80.890 Y129.504 E58.47885
G1 X80.867 Y129.424 E58.49134
G1 X80.792 Y128.669 E58.60515
G1 X80.778 Y94.472 E63.73470
G1 X80.859 Y93.652 E63.85830
G1 X80.867 Y93.580 E63.86916
G1 X81.108 Y92.782 E63.99420
G1 X81.136 Y92.694 E64.00805
G1 X81.532 Y91.950 E64.13448
G1 X81.569 Y91.881 E64.14622
G1 X82.100 Y91.231 E64.27212
G0 F9000 X92.753 Y105.250
G1 F1800 X92.753 Y117.750 E66.14712
G1 X102.253 Y117.750 E67.57212
G1 X102.253 Y105.250 E69.44712
G1 X92.753 Y105.250 E70.87212
G0 F9000 X93.253 Y105.750
;TYPE:WALL-OUTER
G1 F1800 X93.253 Y117.250 E72.59712
G1 X101.753 Y117.250 E73.87212
G1 X101.753 Y105.750 E75.59712
G1 X93.253 Y105.750 E76.87212
G0 F9000 X93.253 Y105.400
G0 X80.627 Y94.469
G0 X80.278 Y94.454
G1 F1800 X80.362 Y93.600 E77.00084
G1 X80.375 Y93.477 E77.01939
G1 X80.630 Y92.632 E77.15179
G1 X80.672 Y92.501 E77.17242
G1 X81.091 Y91.715 E77.30603
G1 X81.155 Y91.597 E77.32616
G1 X81.717 Y90.910 E77.45930
G1 X81.807 Y90.802 E77.48039
G1 X82.492 Y90.237 E77.61358
G1 X82.596 Y90.153 E77.63363
G1 X83.380 Y89.733 E77.76705
G1 X83.504 Y89.669 E77.78798
G1 X84.350 Y89.411 E77.92065
G1 X84.481 Y89.373 E77.94111
G1 X85.315 Y89.289 E78.06684
G1 X137.547 Y89.275 E85.90164
G1 X138.402 Y89.360 E86.03052
G1 X138.525 Y89.373 E86.04908
G1 X139.371 Y89.628 E86.18161
G1 X139.504 Y89.671 E86.20258
G1 X140.288 Y90.088 E86.33578
G1 X140.404 Y90.151 E86.35558
G1 X141.093 Y90.715 E86.48914
G1 X141.200 Y90.805 E86.51012
G1 X141.763 Y91.487 E86.64277
G1 X141.849 Y91.595 E86.66348
G1 X142.270 Y92.378 E86.79683
G1 X142.334 Y92.502 E86.81776
G1 X142.592 Y93.347 E86.95029
G1 X142.630 Y93.478 E86.97075
G1 X142.709 Y94.268 E87.08984
G1 X142.722 Y128.595 E92.23889
G1 X142.643 Y129.404 E92.36082
G1 X142.630 Y129.523 E92.37877
G1 X142.375 Y130.368 E92.51117
G1 X142.333 Y130.499 E92.53180
G1 X141.914 Y131.285 E92.66541
G1 X141.851 Y131.402 E92.68534
G1 X141.288 Y132.090 E92.81869
G1 X141.198 Y132.198 E92.83978
G1 X140.512 Y132.763 E92.97309
G1 X140.407 Y132.847 E92.99326
G1 X139.625 Y133.267 E93.12640
G1 X139.501 Y133.331 E93.14733
G1 X138.655 Y133.589 E93.28000
G1 X138.524 Y133.627 E93.30046
G1 X137.690 Y133.711 E93.42620
G1 X85.458 Y133.725 E101.26100
G1 X84.603 Y133.640 E101.38988
G1 X84.480 Y133.627 E101.40843
G1 X83.634 Y133.372 E101.54097
G1 X83.501 Y133.329 E101.56194
G1 X82.716 Y132.912 E101.69527
G1 X82.597 Y132.847 E101.71561
G1 X81.911 Y132.286 E101.84854
G1 X81.805 Y132.195 E101.86949
G1 X81.240 Y131.510 E102.00269
G1 X81.156 Y131.405 E102.02285
G1 X80.735 Y130.622 E102.15621
G1 X80.671 Y130.498 E102.17714
G1 X80.412 Y129.650 E102.31014
G1 X80.375 Y129.522 E102.33012
G1 X80.292 Y128.688 E102.45584
G1 X80.278 Y94.454 E107.59094
G0 F9000 X80.952 Y94.740
;TYPE:SKIN
G1 F1800 X92.577 Y106.366 E110.05708
G0 F9000 X92.577 Y107.073
G1 F1800 X80.952 Y95.448 E112.52312
G0 F9000 X80.953 Y96.155
G1 F1800 X92.577 Y107.780 E114.98905
G0 F9000 X92.577 Y108.487
G1 F1800 X80.953 Y96.863 E117.45487
G0 F9000 X80.953 Y97.570
G1 F1800 X92.577 Y109.194 E119.92069
G0 F9000 X92.577 Y109.902
G1 F1800 X80.953 Y98.277 E122.38662
G0 F9000 X80.953 Y98.985
G1 F1800 X92.577 Y110.609 E124.85244
G0 F9000 X92.577 Y111.316
G1 F1800 X80.954 Y99.692 E127.31816
G0 F9000 X80.992 Y94.074
G1 F1800 X92.577 Y105.659 E129.77571
G0 F9000 X92.699 Y105.073
G1 F1800 X81.085 Y93.459 E132.23941
G0 F9000 X81.249 Y92.916
G1 F1800 X93.406 Y105.073 E134.81830
G0 F9000 X94.113 Y105.073
G1 F1800 X81.472 Y92.432 E137.49986
G0 F9000 X81.719 Y91.972
G1 F1800 X94.820 Y105.073 E140.27900
G0 F9000 X95.528 Y105.073
G1 F1800 X82.037 Y91.583 E143.14077
G0 F9000 X82.372 Y91.211
G1 F1800 X96.235 Y105.073 E146.08145
G0 F9000 X96.942 Y105.073
G1 F1800 X82.759 Y90.890 E149.09012
G0 F9000 X83.180 Y90.605
G1 F1800 X97.649 Y105.073 E152.15935
G0 F9000 X98.356 Y105.073
G1 F1800 X83.641 Y90.359 E155.28077
G0 F9000 X84.163 Y90.173
G1 F1800 X99.063 Y105.073 E158.44154
G0 F9000 X99.770 Y105.073
G1 F1800 X84.723 Y90.026 E161.63349
G0 F9000 X85.366 Y89.963
G1 F1800 X100.477 Y105.073 E164.83891
G0 F9000 X101.184 Y105.073
G1 F1800 X86.073 Y89.963 E168.04433
G0 F9000 X86.781 Y89.963
G1 F1800 X101.891 Y105.073 E171.24964
G0 F9000 X102.427 Y105.609
G1 F1800 X129.855 Y133.037 E177.06800
G0 F9000 X129.148 Y133.037
G1 F1800 X102.427 Y106.317 E182.73628
G0 F9000 X102.427 Y107.024
G1 F1800 X128.442 Y133.038 E188.25478
G0 F9000 X127.735 Y133.038
G1 F1800 X102.427 Y107.731 E193.62332
G0 F9000 X102.427 Y108.438
G1 F1800 X127.028 Y133.038 E198.84187
G0 F9000 X126.321 Y133.038
G1 F1800 X102.427 Y109.145 E203.91045
G0 F9000 X102.427 Y109.852
G1 F1800 X125.614 Y133.039 E208.82915
G0 F9000 X124.907 Y133.039
G1 F1800 X102.427 Y110.559 E213.59788
G0 F9000 X102.427 Y111.266
G1 F1800 X124.200 Y133.039 E218.21663
G0 F9000 X123.493 Y133.039
G1 F1800 X102.427 Y111.973 E222.68540
G0 F9000 X102.427 Y112.681
G1 F1800 X122.786 Y133.040 E227.00420
G0 F9000 X122.079 Y133.040
G1 F1800 X102.427 Y113.388 E231.17302
G0 F9000 X102.427 Y114.095
G1 F1800 X121.372 Y133.040 E235.19186
G0 F9000 X120.665 Y133.040
G1 F1800 X102.427 Y114.802 E239.06073
G0 F9000 X102.427 Y115.509
G1 F1800 X119.959 Y133.040 E242.77972
G0 F9000 X119.252 Y133.040
G1 F1800 X102.427 Y116.216 E246.34873
G0 F9000 X102.427 Y116.923
G1 F1800 X118.545 Y133.040 E249.76777
G0 F9000 X117.837 Y133.040
G1 F1800 X102.427 Y117.630 E253.03673
G0 F9000 X102.015 Y117.924
G1 F1800 X117.131 Y133.041 E256.24342
G0 F9000 X116.424 Y133.041
G1 F1800 X101.307 Y117.924 E259.45022
G0 F9000 X100.600 Y117.924
G1 F1800 X115.717 Y133.041 E262.65702
G0 F9000 X115.010 Y133.041
G1 F1800 X99.893 Y117.924 E265.86382
G0 F9000 X99.186 Y117.924
G1 F1800 X114.303 Y133.042 E269.07073
G0 F9000 X113.596 Y133.042
G1 F1800 X98.479 Y117.924 E272.27763
G0 F9000 X97.772 Y117.924
G1 F1800 X112.889 Y133.042 E275.48454
G0 F9000 X112.182 Y133.042
G1 F1800 X97.065 Y117.924 E278.69144
G0 F9000 X96.358 Y117.924
G1 F1800 X111.476 Y133.042 E281.89846
G0 F9000 X110.768 Y133.042
G1 F1800 X95.651 Y117.924 E285.10536
G0 F9000 X94.943 Y117.924
G1 F1800 X110.061 Y133.042 E288.31237
G0 F9000 X109.354 Y133.042
G1 F1800 X94.236 Y117.924 E291.51939
G0 F9000 X93.529 Y117.924
G1 F1800 X108.648 Y133.043 E294.72661
G0 F9000 X107.941 Y133.043
G1 F1800 X92.822 Y117.924 E297.93383
G0 F9000 X92.577 Y117.680
G1 F1800 X80.957 Y106.059 E300.39891
G0 F9000 X80.957 Y106.766
G1 F1800 X107.234 Y133.043 E305.97311
G0 F9000 X106.527 Y133.043
G1 F1800 X80.957 Y107.473 E311.39732
G0 F9000 X80.958 Y108.181
G1 F1800 X105.819 Y133.043 E316.67125
G0 F9000 X105.113 Y133.044
G1 F1800 X80.958 Y108.888 E321.79540
G0 F9000 X80.958 Y109.596
G1 F1800 X104.406 Y133.044 E326.76947
G0 F9000 X103.699 Y133.044
G1 F1800 X80.958 Y110.303 E331.59357
G0 F9000 X80.959 Y111.011
G1 F1800 X102.992 Y133.044 E336.26747
G0 F9000 X102.285 Y133.044
G1 F1800 X80.959 Y111.718 E340.79140
G0 F9000 X80.960 Y112.426
G1 F1800 X101.578 Y133.044 E345.16514
G0 F9000 X100.871 Y133.044
G1 F1800 X80.960 Y113.133 E349.38890
G0 F9000 X80.960 Y113.840
G1 F1800 X100.164 Y133.044 E353.46268
G0 F9000 X99.458 Y133.045
G1 F1800 X80.960 Y114.548 E357.38659
G0 F9000 X80.960 Y115.255
G1 F1800 X98.750 Y133.045 E361.16042
G0 F9000 X98.043 Y133.045
G1 F1800 X80.961 Y115.963 E364.78406
G0 F9000 X80.961 Y116.670
G1 F1800 X97.336 Y133.045 E368.25773
G0 F9000 X96.630 Y133.046
G1 F1800 X80.962 Y117.378 E371.58141
G0 F9000 X80.962 Y118.085
G1 F1800 X95.923 Y133.046 E374.75512
G0 F9000 X95.216 Y133.046
G1 F1800 X80.962 Y118.792 E377.77885
G0 F9000 X80.963 Y119.500
G1 F1800 X94.509 Y133.046 E380.65239
G0 F9000 X93.802 Y133.047
G1 F1800 X80.963 Y120.207 E383.37606
G0 F9000 X80.963 Y120.915
G1 F1800 X93.095 Y133.047 E385.94964
G0 F9000 X92.388 Y133.047
G1 F1800 X80.963 Y121.622 E388.37325
G0 F9000 X80.964 Y122.330
G1 F1800 X91.681 Y133.047 E390.64667
G0 F9000 X90.974 Y133.047
G1 F1800 X80.964 Y123.037 E392.77011
G0 F9000 X80.964 Y123.744
G1 F1800 X90.267 Y133.047 E394.74358
G0 F9000 X89.560 Y133.047
G1 F1800 X80.965 Y124.452 E396.56685
G0 F9000 X80.965 Y125.159
G1 F1800 X88.853 Y133.047 E398.24015
G0 F9000 X88.147 Y133.048
G1 F1800 X80.965 Y125.867 E399.76358
G0 F9000 X80.965 Y126.574
G1 F1800 X87.440 Y133.048 E401.13702
G0 F9000 X86.733 Y133.048
G1 F1800 X80.966 Y127.282 E402.36028
G0 F9000 X80.966 Y127.989
G1 F1800 X86.025 Y133.048 E403.43346
G0 F9000 X85.300 Y133.030
G1 F1800 X80.971 Y128.701 E404.35178
G0 F9000 X81.076 Y129.512
G1 F1800 X84.485 Y132.921 E405.07494
G0 F9000 X83.328 Y132.472
G1 F1800 X81.530 Y130.674 E405.45635
G0 F9000 X92.577 Y116.973
G1 F1800 X80.956 Y105.351 E407.92164
G0 F9000 X80.956 Y104.644
G1 F1800 X92.577 Y116.266 E410.38694
G0 F9000 X92.577 Y115.558
G1 F1800 X80.955 Y103.936 E412.85233
G0 F9000 X80.955 Y103.229
G1 F1800 X92.577 Y114.851 E415.31773
G0 F9000 X92.577 Y114.144
G1 F1800 X80.955 Y102.521 E417.78324
G0 F9000 X80.955 Y101.814
G1 F1800 X92.577 Y113.437 E420.24874
G0 F9000 X92.577 Y112.730
G1 F1800 X80.955 Y101.107 E422.71425
G0 F9000 X80.954 Y100.399
G1 F1800 X92.577 Y112.023 E425.17996
G0 F9000 X92.436 Y89.961
G1 F1800 X135.511 Y133.036 E434.31755
G0 F9000 X134.804 Y133.036
G1 F1800 X91.729 Y89.961 E443.45514
G0 F9000 X91.023 Y89.962
G1 F1800 X134.097 Y133.037 E452.59262
G0 F9000 X133.390 Y133.037
G1 F1800 X90.315 Y89.962 E461.73021
G0 F9000 X89.608 Y89.962
G1 F1800 X132.683 Y133.037 E470.86779
G0 F9000 X131.976 Y133.037
G1 F1800 X88.901 Y89.962 E480.00538
G0 F9000 X88.195 Y89.963
G1 F1800 X131.270 Y133.037 E489.14286
G0 F9000 X130.563 Y133.037
G1 F1800 X87.488 Y89.963 E498.28034
G0 F9000 X93.143 Y89.961
G1 F1800 X136.218 Y133.036 E507.41793
G0 F9000 X136.925 Y133.036
G1 F1800 X93.850 Y89.961 E516.55552
G0 F9000 X94.557 Y89.960
G1 F1800 X137.632 Y133.036 E525.69321
G0 F9000 X138.276 Y132.972
G1 F1800 X95.264 Y89.960 E534.81743
G0 F9000 X95.971 Y89.960
G1 F1800 X138.837 Y132.827 E543.91079
G0 F9000 X139.358 Y132.641
G1 F1800 X96.678 Y89.960 E552.96469
G0 F9000 X97.384 Y89.960
G1 F1800 X139.819 Y132.394 E561.96641
G0 F9000 X140.240 Y132.108
G1 F1800 X98.091 Y89.960 E570.90746
G0 F9000 X98.799 Y89.960
G1 F1800 X140.629 Y131.790 E579.78094
G0 F9000 X140.964 Y131.418
G1 F1800 X99.506 Y89.960 E588.57551
G0 F9000 X100.212 Y89.959
G1 F1800 X141.282 Y131.029 E597.28777
G0 F9000 X141.529 Y130.569
G1 F1800 X100.919 Y89.959 E605.90246
G0 F9000 X101.626 Y89.959
G1 F1800 X141.753 Y130.086 E614.41468
G0 F9000 X141.917 Y129.543
G1 F1800 X102.333 Y89.959 E622.81171
G0 F9000 X103.040 Y89.958
G1 F1800 X142.011 Y128.929 E631.07871
G0 F9000 X142.045 Y128.257
G1 F1800 X103.747 Y89.958 E639.20305
G0 F9000 X104.454 Y89.958
G1 F1800 X142.045 Y127.550 E647.17741
G0 F9000 X142.045 Y126.842
G1 F1800 X105.161 Y89.958 E655.00169
G0 F9000 X105.868 Y89.958
G1 F1800 X142.045 Y126.135 E662.67599
G0 F9000 X142.045 Y125.428
G1 F1800 X106.575 Y89.958 E670.20031
G0 F9000 X107.282 Y89.958
G1 F1800 X142.044 Y124.720 E677.57444
G0 F9000 X142.044 Y124.013
G1 F1800 X107.989 Y89.958 E684.79860
G0 F9000 X108.695 Y89.957
G1 F1800 X142.044 Y123.305 E691.87289
G0 F9000 X142.043 Y122.598
G1 F1800 X109.402 Y89.957 E698.79709
G0 F9000 X110.109 Y89.957
G1 F1800 X142.043 Y121.891 E705.57131
G0 F9000 X142.043 Y121.183
G1 F1800 X110.817 Y89.957 E712.19535
G0 F9000 X111.523 Y89.956
G1 F1800 X142.042 Y120.476 E718.66951
G0 F9000 X142.042 Y119.769
G1 F1800 X112.230 Y89.956 E724.99370
G0 F9000 X112.937 Y89.956
G1 F1800 X142.042 Y119.061 E731.16780
G0 F9000 X142.042 Y118.354
G1 F1800 X113.644 Y89.956 E737.19193
G0 F9000 X114.351 Y89.956
G1 F1800 X142.042 Y117.647 E743.06607
G0 F9000 X142.041 Y116.939
G1 F1800 X115.058 Y89.956 E748.79003
G0 F9000 X115.765 Y89.956
G1 F1800 X142.041 Y116.232 E754.36401
G0 F9000 X142.041 Y115.524
G1 F1800 X116.472 Y89.956 E759.78791
G0 F9000 X117.179 Y89.956
G1 F1800 X142.040 Y114.817 E765.06173
G0 F9000 X142.040 Y114.110
G1 F1800 X117.886 Y89.955 E770.18567
G0 F9000 X118.593 Y89.955
G1 F1800 X142.040 Y113.402 E775.15953
G0 F9000 X142.040 Y112.695
G1 F1800 X119.300 Y89.955 E779.98341
G0 F9000 X120.007 Y89.955
G1 F1800 X142.040 Y111.988 E784.65732
G0 F9000 X142.039 Y111.280
G1 F1800 X120.713 Y89.954 E789.18124
G0 F9000 X121.420 Y89.954
G1 F1800 X142.039 Y110.573 E793.55520
G0 F9000 X142.039 Y109.866
G1 F1800 X122.127 Y89.954 E797.77917
G0 F9000 X122.835 Y89.954
G1 F1800 X142.038 Y109.158 E801.85285
G0 F9000 X142.038 Y108.451
